; generated by PrusaSlicer 2.4.0+win64 on 2022-01-15 at 10:14:36 UTC

; 

; external perimeters extrusion width = 0.45mm
; perimeters extrusion width = 0.45mm
; infill extrusion width = 0.45mm
; solid infill extrusion width = 0.45mm
; top infill extrusion width = 0.40mm
; first layer extrusion width = 0.42mm

M73 P0 R78
M73 Q0 S78
M201 X1000 Y1000 Z200 E5000 ; sets maximum accelerations, mm/sec^2
M203 X200 Y200 Z12 E120 ; sets maximum feedrates, mm/sec
M204 P1250 R1250 T1250 ; sets acceleration (P, T) and retract acceleration (R), mm/sec^2
M205 X8.00 Y8.00 Z0.40 E4.50 ; sets the jerk limits, mm/sec
M205 S0 T0 ; sets the minimum extruding and travel feed rate, mm/sec
M107
;TYPE:Custom
M862.3 P "MK3S" ; printer model check
M862.1 P0.4 ; nozzle diameter check
M115 U3.10.1 ; tell printer latest fw version
G90 ; use absolute coordinates
M83 ; extruder relative mode
M104 S220 ; set extruder temp
M140 S70 ; set bed temp
M190 S70 ; wait for bed temp
M109 S220 ; wait for extruder temp
G28 W ; home all without mesh bed level
G80 ; mesh bed leveling
G1 Z0.2 F720
G1 Y-3 F1000 ; go outside print area
G92 E0
G1 X60 E9 F1000 ; intro line
G1 X100 E12.5 F1000 ; intro line
G92 E0
M221 S95

; Don't change E values below. Excessive value can damage the printer.

M907 E538 ; set extruder motor current
G21 ; set units to millimeters
G90 ; use absolute coordinates
M83 ; use relative distances for extrusion
M900 K0.08 ; Filament gcode LA 1.5
M900 K45 ; Filament gcode LA 1.0
M107
;LAYER_CHANGE
;Z:0.2
;HEIGHT:0.2
;BEFORE_LAYER_CHANGE
G92 E0.0
;0.2


G1 E-1 F2100
G1 Z.2 F720
;AFTER_LAYER_CHANGE
;0.2
G1 Z.4
G1 X108.015 Y73.218 F10800
G1 Z.2 F720
G1 E1 F2100
M204 S800
;TYPE:Skirt/Brim
;WIDTH:0.42
G1 F1200
G1 X109.187 Y72.291 E.04686
G1 X124.609 Y66.679 E.51458
G1 X125.425 Y66.486 E.02628
G1 X126.147 Y66.451 E.02265
G1 X126.887 Y66.542 E.02338
G1 X127.578 Y66.752 E.02264
G1 X140.917 Y72.332 E.45338
G1 X141.972 Y73.198 E.04278
G1 X142.377 Y74.525 E.04351
G1 X142.377 Y135.525 E1.91261
G1 X141.985 Y136.832 E.04278
G1 X141.324 Y137.499 E.02947
G1 X133.243 Y142.913 E.30496
G1 X132.292 Y143.35 E.03283
G1 X131.263 Y143.543 E.03283
G1 X130.634 Y143.536 E.01973
G1 X129.909 Y143.412 E.02308
G1 X109.375 Y137.819 E.66726
G1 X108.217 Y137.097 E.04278
G1 X107.623 Y135.525 E.0527
G1 X107.623 Y74.525 E1.91261
G1 X107.997 Y73.275 E.0409
M204 S1000
; printing object GlassCurtainRail.stl id:0 copy 0
;WIPE_START
G1 F8640
G1 X109.187 Y72.291 E-.35651
G1 X111.602 Y71.412 E-.59349
;WIPE_END
G1 E-.05 F2100
G1 Z.4 F720
G1 X111.187 Y75.312 F10800
G1 Z.2 F720
G1 E1 F2100
M204 S800
;TYPE:Perimeter
G1 F1200
G1 X125.815 Y75.312 E.45865
G1 X125.004 Y71.256 E.12971
G1 X124.904 Y70.933 E.01059
G1 X124.886 Y70.787 E.00462
G1 X124.897 Y70.555 E.00728
G1 X124.93 Y70.41 E.00467
G1 X125.016 Y70.202 E.00705
G1 X125.137 Y70.021 E.00682
G1 X125.291 Y69.867 E.00682
G1 X125.478 Y69.742 E.00705
G1 X125.614 Y69.682 E.00467
G1 X125.832 Y69.627 E.00705
G1 X126.057 Y69.616 E.00705
G1 X126.205 Y69.634 E.00467
G1 X126.42 Y69.699 E.00705
G1 X126.618 Y69.805 E.00705
G1 X126.849 Y70.015 E.00977
G1 X126.974 Y70.202 E.00705
G1 X127.06 Y70.41 E.00705
G1 X127.106 Y70.718 E.00977
G1 X127.084 Y70.94 E.007
G1 X126.986 Y71.256 E.01036
G1 X126.175 Y75.312 E.12971
G1 X128.84 Y75.312 E.08355
G1 X128.391 Y77.557 E.07179
G1 X128.266 Y77.975 E.01367
G1 X128.215 Y78.388 E.01306
G1 X128.225 Y78.791 E.01264
G1 X128.267 Y79.076 E.00903
G1 X128.374 Y79.465 E.01264
G1 X128.541 Y79.84 E.01286
G1 X128.76 Y80.186 E.01287
G1 X129.024 Y80.492 E.01266
G1 X129.243 Y80.69 E.00927
G1 X129.567 Y80.917 E.01239
G1 X129.939 Y81.105 E.01308
G1 X130.456 Y81.261 E.01692
G1 X131 Y81.315 E.01715
G1 X131.544 Y81.261 E.01715
G1 X132.068 Y81.103 E.01715
G1 X132.55 Y80.845 E.01715
G1 X132.973 Y80.498 E.01715
G1 X133.32 Y80.075 E.01715
G1 X133.574 Y79.599 E.01692
G1 X133.703 Y79.209 E.01286
G1 X133.759 Y78.927 E.00903
G1 X133.789 Y78.525 E.01264
G1 X133.759 Y78.123 E.01264
G1 X133.703 Y77.841 E.00901
G1 X133.608 Y77.55 E.00961
G1 X133.16 Y75.312 E.07156
G1 X139.213 Y75.312 E.18978
G1 X139.213 Y134.738 E1.86326
G1 X131.185 Y134.738 E.25171
M73 P0 R77
G1 X131.986 Y138.744 E.12811
G1 X132.084 Y139.06 E.01036
G1 X132.106 Y139.282 E.007
G1 X132.06 Y139.591 E.00977
G1 X131.974 Y139.798 E.00705
G1 X131.849 Y139.985 E.00705
G1 X131.618 Y140.195 E.00977
G1 X131.42 Y140.301 E.00705
G1 X131.205 Y140.366 E.00705
G1 X130.893 Y140.381 E.00977
G1 X130.673 Y140.337 E.00705
G1 X130.465 Y140.251 E.00705
G1 X130.215 Y140.066 E.00977
G1 X130.072 Y139.892 E.00705
G1 X129.969 Y139.7 E.00682
G1 X129.906 Y139.492 E.00682
G1 X129.885 Y139.275 E.00682
G1 X129.906 Y139.06 E.00677
G1 X130.004 Y138.744 E.01036
G1 X130.805 Y134.738 E.12811
G1 X128.16 Y134.738 E.08293
G1 X128.609 Y132.493 E.07179
G1 X128.736 Y132.068 E.01389
G1 X128.789 Y131.532 E.01689
G1 X128.759 Y131.116 E.01309
G1 X128.669 Y130.715 E.01286
G1 X128.521 Y130.333 E.01286
G1 X128.319 Y129.976 E.01287
G1 X128.066 Y129.652 E.01286
G1 X127.769 Y129.369 E.01286
G1 X127.434 Y129.133 E.01286
G1 X127.067 Y128.949 E.01286
G1 X126.671 Y128.818 E.01309
G1 X126.137 Y128.738 E.01692
G1 X125.598 Y128.765 E.01692
G1 X125.183 Y128.858 E.01332
G1 X124.685 Y129.064 E.01692
G1 X124.23 Y129.368 E.01715
G1 X123.843 Y129.755 E.01715
G1 X123.543 Y130.204 E.01692
G1 X123.374 Y130.586 E.01309
G1 X123.267 Y130.974 E.01264
G1 X123.225 Y131.259 E.00903
G1 X123.215 Y131.655 E.01241
G1 X123.242 Y131.934 E.0088
G1 X123.297 Y132.209 E.00878
G1 X123.392 Y132.5 E.00961
G1 X123.84 Y134.738 E.07156
G1 X110.787 Y134.738 E.40926
G1 X110.787 Y75.312 E1.86326
G1 X111.127 Y75.312 E.01066
M204 S1000
M73 Q0 S77
G1 X110.41 Y74.935 F10800
M204 S800
;TYPE:External perimeter
G1 F1200
G1 X125.355 Y74.935 E.46859
G1 X124.638 Y71.349 E.11468
G1 X124.534 Y71.012 E.01103
G1 X124.508 Y70.801 E.00669
G1 X124.522 Y70.504 E.00931
G1 X124.569 Y70.295 E.00671
G1 X124.682 Y70.023 E.00923
G1 X124.844 Y69.78 E.00915
G1 X125.05 Y69.574 E.00915
G1 X125.295 Y69.41 E.00923
G1 X125.491 Y69.324 E.00671
G1 X125.777 Y69.252 E.00923
G1 X126.071 Y69.238 E.00923
G1 X126.283 Y69.264 E.00671
G1 X126.565 Y69.349 E.00923
G1 X126.824 Y69.488 E.00923
G1 X126.995 Y69.621 E.00679
G1 X127.145 Y69.778 E.00679
G1 X127.308 Y70.023 E.00923
G1 X127.421 Y70.295 E.00923
G1 X127.468 Y70.506 E.00679
G1 X127.484 Y70.722 E.00679
G1 X127.455 Y71.015 E.00922
G1 X127.352 Y71.348 E.01095
G1 X126.635 Y74.935 E.11468
G1 X129.3 Y74.935 E.08355
G1 X128.757 Y77.649 E.08676
G1 X128.636 Y78.052 E.01322
G1 X128.592 Y78.407 E.01119
G1 X128.601 Y78.759 E.01104
G1 X128.636 Y78.998 E.00758
G1 X128.73 Y79.337 E.01104
G1 X128.874 Y79.661 E.01112
G1 X129.064 Y79.961 E.01112
G1 X129.294 Y80.228 E.01105
G1 X129.479 Y80.395 E.00781
G1 X129.761 Y80.593 E.0108
G1 X130.08 Y80.753 E.0112
G1 X130.53 Y80.89 E.01474
G1 X131 Y80.936 E.01482
G1 X131.47 Y80.89 E.01482
G1 X131.923 Y80.753 E.01482
G1 X132.34 Y80.53 E.01482
G1 X132.705 Y80.23 E.01482
G1 X133.005 Y79.865 E.01482
G1 X133.226 Y79.45 E.01474
G1 X133.338 Y79.113 E.01112
G1 X133.385 Y78.876 E.00758
G1 X133.411 Y78.525 E.01104
G1 X133.385 Y78.174 E.01104
G1 X133.338 Y77.937 E.00757
G1 X133.242 Y77.646 E.0096
G1 X132.7 Y74.935 E.08669
G1 X139.59 Y74.935 E.21602
G1 X139.59 Y135.115 E1.8869
G1 X131.645 Y135.115 E.24911
G1 X132.352 Y138.651 E.11308
G1 X132.455 Y138.985 E.01095
G1 X132.484 Y139.278 E.00921
G1 X132.468 Y139.494 E.00679
G1 X132.421 Y139.705 E.00679
G1 X132.308 Y139.977 E.00923
G1 X132.145 Y140.222 E.00923
G1 X131.995 Y140.379 E.00679
G1 X131.825 Y140.512 E.00679
G1 X131.565 Y140.651 E.00923
G1 X131.283 Y140.736 E.00923
G1 X131.068 Y140.763 E.00679
G1 X130.852 Y140.757 E.00679
G1 X130.563 Y140.7 E.00923
G1 X130.291 Y140.587 E.00923
G1 X130.108 Y140.471 E.00679
G1 X129.944 Y140.33 E.00679
G1 X129.757 Y140.102 E.00923
G1 X129.619 Y139.845 E.00915
G1 X129.535 Y139.565 E.00915
G1 X129.506 Y139.275 E.00915
G1 X129.535 Y138.985 E.00913
G1 X129.638 Y138.652 E.01095
G1 X130.345 Y135.115 E.11308
G1 X127.7 Y135.115 E.08293
G1 X128.243 Y132.402 E.08676
G1 X128.365 Y131.995 E.01331
G1 X128.411 Y131.528 E.01473
G1 X128.385 Y131.171 E.0112
G1 X128.307 Y130.825 E.01112
G1 X128.179 Y130.494 E.01112
G1 X128.004 Y130.186 E.01112
G1 X127.786 Y129.906 E.01112
G1 X127.529 Y129.662 E.01112
G1 X127.239 Y129.457 E.01112
G1 X126.923 Y129.298 E.01112
G1 X126.583 Y129.186 E.0112
G1 X126.118 Y129.117 E.01474
G1 X125.649 Y129.14 E.01474
G1 X125.298 Y129.219 E.01128
G1 X124.863 Y129.399 E.01474
G1 X124.47 Y129.661 E.01482
G1 X124.136 Y129.995 E.01482
G1 X123.875 Y130.386 E.01474
G1 X123.73 Y130.713 E.0112
G1 X123.636 Y131.052 E.01104
G1 X123.601 Y131.291 E.00758
G1 X123.592 Y131.641 E.01096
G1 X123.616 Y131.879 E.0075
G1 X123.662 Y132.113 E.00749
G1 X123.758 Y132.404 E.0096
G1 X124.3 Y135.115 E.08669
G1 X110.41 Y135.115 E.4355
G1 X110.41 Y74.995 E1.88502
M204 S1000
G1 X110.771 Y75.108 F10800
;WIPE_START
G1 F8640
G1 X114.524 Y74.978 E-.95
;WIPE_END
G1 E-.05 F2100
G1 Z.4 F720
G1 X126.168 Y69.744 F10800
G1 Z.2 F720
G1 E1 F2100
M204 S800
;TYPE:Solid infill
;WIDTH:0.432819
G1 F1200
G1 X126.649 Y70.225 E.02205
G1 X126.723 Y70.336 E.00433
G1 X126.785 Y70.486 E.00526
G1 X126.821 Y70.725 E.00784
G1 X126.794 Y70.921 E.00641
G1 X125.8 Y69.927 E.04558
G1 X125.615 Y69.991 E.00635
G1 X125.44 Y70.118 E.00701
G1 X126.678 Y71.356 E.05676
G1 X126.586 Y71.816 E.01519
G1 X125.22 Y70.449 E.06264
G1 X125.179 Y70.593 E.00485
G1 X125.17 Y70.776 E.00595
G1 X125.222 Y71.003 E.00753
G1 X126.494 Y72.275 E.05834
G1 X126.402 Y72.735 E.01519
G1 X125.384 Y71.717 E.04666
G1 X125.522 Y72.406 E.02279
G1 X126.31 Y73.194 E.03612
G1 X126.218 Y73.654 E.01519
G1 X125.66 Y73.095 E.02559
G1 X125.798 Y73.785 E.02279
G1 X126.126 Y74.113 E.01506
G1 X126.034 Y74.572 E.01519
G1 X125.72 Y74.258 E.01444
M204 S1000
;WIPE_START
G1 F8640
G1 X126.034 Y74.572 E-.10284
G1 X126.126 Y74.113 E-.1082
G1 X125.798 Y73.785 E-.10723
G1 X125.66 Y73.095 E-.1623
G1 X126.218 Y73.654 E-.18225
G1 X126.31 Y73.194 E-.1082
G1 X125.762 Y72.646 E-.17898
;WIPE_END
G1 E-.05 F2100
G1 Z.4 F720
G1 X139.1 Y76.188 F10800
G1 Z.2 F720
G1 E1 F2100
M204 S800
;WIDTH:0.420078
G1 F1200
G1 X138.507 Y75.595 E.02629
G1 X137.974 Y75.595 E.01673
G1 X138.93 Y76.551 E.04242
G1 X138.93 Y77.085 E.01673
G1 X137.44 Y75.595 E.06608
G1 X136.907 Y75.595 E.01673
G1 X138.93 Y77.618 E.08973
G1 X138.93 Y78.151 E.01673
G1 X136.374 Y75.595 E.11339
G1 X135.84 Y75.595 E.01673
G1 X138.93 Y78.685 E.13704
G1 X138.93 Y79.218 E.01673
G1 X135.307 Y75.595 E.1607
G1 X134.773 Y75.595 E.01673
G1 X138.93 Y79.752 E.18436
G1 X138.93 Y80.285 E.01673
G1 X134.24 Y75.595 E.20801
G1 X133.707 Y75.595 E.01673
G1 X138.93 Y80.818 E.23167
G1 X138.93 Y81.352 E.01673
G1 X133.588 Y76.01 E.23692
G1 X133.721 Y76.676 E.02132
G1 X138.93 Y81.885 E.23101
G1 X138.93 Y82.419 E.01673
G1 X133.855 Y77.343 E.2251
G1 X133.977 Y77.77 E.01391
G1 X134.034 Y78.056 E.00915
G1 X138.93 Y82.952 E.21715
G1 X138.93 Y83.485 E.01673
G1 X134.065 Y78.62 E.21576
G1 X134.013 Y79.101 E.01517
G1 X138.93 Y84.019 E.21809
G1 X138.93 Y84.552 E.01673
M73 Q1 S77
G1 X133.898 Y79.52 E.22317
M73 P1 R77
G1 X133.835 Y79.711 E.0063
G1 X133.738 Y79.893 E.00648
G1 X138.93 Y85.085 E.23029
G1 X138.93 Y85.619 E.01673
G1 X133.551 Y80.239 E.23858
G1 X133.31 Y80.532 E.01189
G1 X138.93 Y86.152 E.24924
G1 X138.93 Y86.686 E.01673
G1 X133.047 Y80.803 E.26091
G1 X132.754 Y81.043 E.01189
G1 X138.93 Y87.219 E.27391
G1 X138.93 Y87.752 E.01673
G1 X132.415 Y81.237 E.28894
G1 X132.176 Y81.365 E.00849
G1 X132.048 Y81.404 E.0042
G1 X138.93 Y88.286 E.30521
G1 X138.93 Y88.819 E.01673
G1 X131.639 Y81.528 E.32336
G1 X131.161 Y81.583 E.0151
G1 X138.93 Y89.352 E.34457
G1 X138.93 Y89.886 E.01673
G1 X130.41 Y81.366 E.37788
M204 S1000
;WIPE_START
G1 F8640
G1 X133.319 Y84.275 E-.95
;WIPE_END
G1 E-.05 F2100
G1 Z.4 F720
G1 X128.619 Y75.841 F10800
G1 Z.2 F720
G1 E1 F2100
M204 S800
G1 F1200
G1 X128.373 Y75.595 E.01091
G1 X127.839 Y75.595 E.01673
G1 X128.386 Y76.141 E.02422
G1 X128.297 Y76.586 E.01422
G1 X127.306 Y75.595 E.04394
G1 X126.773 Y75.595 E.01673
G1 X128.208 Y77.03 E.06365
G1 X128.119 Y77.475 E.01422
G1 X126.239 Y75.595 E.08337
G1 X125.706 Y75.595 E.01673
G1 X127.997 Y77.886 E.10161
G1 X127.934 Y78.356 E.01487
G1 X125.173 Y75.595 E.12246
G1 X124.639 Y75.595 E.01673
G1 X128.161 Y79.116 E.15618
M204 S1000
;WIPE_START
G1 F8640
G1 X125.251 Y76.207 E-.95
;WIPE_END
G1 E-.05 F2100
G1 Z.4 F720
G1 X123.936 Y75.425 F10800
G1 Z.2 F720
G1 E1 F2100
M204 S800
G1 F1200
G1 X128.136 Y79.625 E.18628
G1 X128.29 Y79.973 E.01193
G1 X128.532 Y80.355 E.01418
G1 X128.821 Y80.69 E.01387
G1 X129.067 Y80.912 E.01037
G1 X129.421 Y81.16 E.01358
G1 X129.899 Y81.388 E.0166
G1 X138.93 Y90.419 E.40055
G1 X138.93 Y90.953 E.01673
G1 X123.572 Y75.595 E.68113
G1 X123.039 Y75.595 E.01673
G1 X138.93 Y91.486 E.70479
G1 X138.93 Y92.019 E.01673
G1 X122.506 Y75.595 E.72844
G1 X121.972 Y75.595 E.01673
G1 X138.93 Y92.553 E.7521
G1 X138.93 Y93.086 E.01673
G1 X121.439 Y75.595 E.77575
G1 X120.905 Y75.595 E.01673
G1 X138.93 Y93.62 E.79941
G1 X138.93 Y94.153 E.01673
G1 X120.372 Y75.595 E.82307
G1 X119.839 Y75.595 E.01673
G1 X138.93 Y94.686 E.84672
G1 X138.93 Y95.22 E.01673
G1 X119.305 Y75.595 E.87038
G1 X118.772 Y75.595 E.01673
G1 X138.93 Y95.753 E.89403
G1 X138.93 Y96.286 E.01673
G1 X118.239 Y75.595 E.91769
G1 X117.705 Y75.595 E.01673
G1 X138.93 Y96.82 E.94135
G1 X138.93 Y97.353 E.01673
G1 X117.172 Y75.595 E.965
G1 X116.638 Y75.595 E.01673
G1 X138.93 Y97.887 E.98866
G1 X138.93 Y98.42 E.01673
G1 X116.105 Y75.595 E1.01231
G1 X115.572 Y75.595 E.01673
G1 X138.93 Y98.953 E1.03597
G1 X138.93 Y99.487 E.01673
G1 X115.038 Y75.595 E1.05963
G1 X114.505 Y75.595 E.01673
G1 X138.93 Y100.02 E1.08328
G1 X138.93 Y100.554 E.01673
G1 X113.971 Y75.595 E1.10694
G1 X113.438 Y75.595 E.01673
M73 P1 R76
G1 X138.93 Y101.087 E1.13059
G1 X138.93 Y101.62 E.01673
G1 X112.905 Y75.595 E1.15425
G1 X112.371 Y75.595 E.01673
G1 X138.93 Y102.154 E1.17791
G1 X138.93 Y102.687 E.01673
M73 Q1 S76
G1 X111.838 Y75.595 E1.20156
G1 X111.305 Y75.595 E.01673
G1 X138.93 Y103.22 E1.22522
G1 X138.93 Y103.754 E.01673
G1 X111.07 Y75.894 E1.23563
G1 X111.07 Y76.427 E.01673
M73 P2 R76
M73 Q2 S76
G1 X138.93 Y104.287 E1.23563
G1 X138.93 Y104.821 E.01673
G1 X111.07 Y76.96 E1.23563
G1 X111.07 Y77.494 E.01673
G1 X138.93 Y105.354 E1.23563
G1 X138.93 Y105.887 E.01673
G1 X111.07 Y78.027 E1.23563
G1 X111.07 Y78.56 E.01673
G1 X138.93 Y106.421 E1.23563
G1 X138.93 Y106.954 E.01673
G1 X111.07 Y79.094 E1.23563
G1 X111.07 Y79.627 E.01673
G1 X138.93 Y107.487 E1.23563
G1 X138.93 Y108.021 E.01673
G1 X111.07 Y80.161 E1.23563
G1 X111.07 Y80.694 E.01673
G1 X138.93 Y108.554 E1.23563
G1 X138.93 Y109.088 E.01673
G1 X111.07 Y81.227 E1.23563
G1 X111.07 Y81.761 E.01673
G1 X138.93 Y109.621 E1.23563
G1 X138.93 Y110.154 E.01673
G1 X111.07 Y82.294 E1.23563
G1 X111.07 Y82.827 E.01673
G1 X138.93 Y110.688 E1.23563
G1 X138.93 Y111.221 E.01673
G1 X111.07 Y83.361 E1.23563
G1 X111.07 Y83.894 E.01673
G1 X138.93 Y111.755 E1.23563
G1 X138.93 Y112.288 E.01673
G1 X111.07 Y84.428 E1.23563
G1 X111.07 Y84.961 E.01673
G1 X138.93 Y112.821 E1.23563
G1 X138.93 Y113.355 E.01673
G1 X111.07 Y85.494 E1.23563
G1 X111.07 Y86.028 E.01673
G1 X138.93 Y113.888 E1.23563
G1 X138.93 Y114.421 E.01673
G1 X111.07 Y86.561 E1.23563
G1 X111.07 Y87.095 E.01673
G1 X138.93 Y114.955 E1.23563
G1 X138.93 Y115.488 E.01673
G1 X111.07 Y87.628 E1.23563
G1 X111.07 Y88.161 E.01673
G1 X138.93 Y116.022 E1.23563
G1 X138.93 Y116.555 E.01673
M73 P3 R76
M73 Q3 S76
G1 X111.07 Y88.695 E1.23563
G1 X111.07 Y89.228 E.01673
M73 P3 R75
G1 X138.93 Y117.088 E1.23563
G1 X138.93 Y117.622 E.01673
G1 X111.07 Y89.761 E1.23563
G1 X111.07 Y90.295 E.01673
G1 X138.93 Y118.155 E1.23563
M73 Q3 S75
G1 X138.93 Y118.688 E.01673
G1 X111.07 Y90.828 E1.23563
G1 X111.07 Y91.362 E.01673
G1 X138.93 Y119.222 E1.23563
G1 X138.93 Y119.755 E.01673
G1 X111.07 Y91.895 E1.23563
G1 X111.07 Y92.428 E.01673
G1 X138.93 Y120.289 E1.23563
G1 X138.93 Y120.822 E.01673
G1 X111.07 Y92.962 E1.23563
G1 X111.07 Y93.495 E.01673
G1 X138.93 Y121.355 E1.23563
G1 X138.93 Y121.889 E.01673
G1 X111.07 Y94.029 E1.23563
G1 X111.07 Y94.562 E.01673
G1 X138.93 Y122.422 E1.23563
G1 X138.93 Y122.956 E.01673
