; generated by PrusaSlicer 2.6.1+win64 on 2024-03-08 at 12:28:49 UTC

; 

; external perimeters extrusion width = 0.45mm
; perimeters extrusion width = 0.45mm
; infill extrusion width = 0.45mm
; solid infill extrusion width = 0.45mm
; top infill extrusion width = 0.40mm
; first layer extrusion width = 0.42mm

M73 P0 R53
M73 Q0 S53
M201 X1000 Y1000 Z200 E5000 ; sets maximum accelerations, mm/sec^2
M203 X200 Y200 Z12 E120 ; sets maximum feedrates, mm / sec
M204 S1250 T1250 ; sets acceleration (S) and retract acceleration (R), mm/sec^2
M205 X8.00 Y8.00 Z0.40 E4.50 ; sets the jerk limits, mm/sec
M205 S0 T0 ; sets the minimum extruding and travel feed rate, mm/sec
;TYPE:Custom
M862.3 P "MK3S" ; printer model check
M862.1 P0.4 ; nozzle diameter check
M115 U3.10.1 ; tell printer latest fw version
G90 ; use absolute coordinates
M83 ; extruder relative mode
M104 S215 ; set extruder temp
M140 S60 ; set bed temp
M190 S60 ; wait for bed temp
M109 S215 ; wait for extruder temp
G28 W ; home all without mesh bed level
G80 ; mesh bed leveling
G1 Z0.2 F720
G1 Y-3 F1000 ; go outside print area
G92 E0
G1 X60 E9 F1000 ; intro line
G1 X100 E12.5 F1000 ; intro line
G92 E0
M221 S95

; Don't change E values below. Excessive value can damage the printer.
M907 E430 ; set extruder motor current
G21 ; set units to millimeters
G90 ; use absolute coordinates
M83 ; use relative distances for extrusion
M900 K0.05 ; Filament gcode LA 1.5
M900 K30 ; Filament gcode LA 1.0
M107
;LAYER_CHANGE
;Z:0.2
;HEIGHT:0.2
;BEFORE_LAYER_CHANGE
G92 E0.0
;0.2


G1 E-.8 F2100
G1 Z.4 F720
;AFTER_LAYER_CHANGE
;0.2
G1 X105.18 Y70.977 F10800
G1 Z.2 F720
G1 E.8 F2100
M204 S800
;TYPE:Skirt/Brim
;WIDTH:0.42
G1 F1200
G1 X107.173 Y68.031 E.11152
G1 X108.333 Y66.557 E.05881
G1 X109.552 Y65.17 E.0579
G1 X111.907 Y62.901 E.10254
G1 X114.383 Y61.022 E.09746
G1 X115.788 Y60.161 E.05167
G1 X116.993 Y59.531 E.04263
G1 X118.448 Y58.899 E.04974
G1 X119.711 Y58.458 E.04195
G1 X121.215 Y58.059 E.04879
G1 X122.504 Y57.825 E.04108
G1 X124.032 Y57.672 E.04815
G1 X125.294 Y57.648 E.03958
G1 X126.595 Y57.719 E.04085
G1 X128.121 Y57.927 E.04829
G1 X129.405 Y58.207 E.04121
G1 X130.901 Y58.659 E.049
G1 X132.147 Y59.141 E.04189
G1 X133.596 Y59.827 E.05027
G1 X134.788 Y60.498 E.04289
G1 X136.177 Y61.405 E.05201
G1 X138.623 Y63.368 E.09834
G1 X140.932 Y65.702 E.10294
G1 X143.069 Y68.36 E.10693
G1 X145.23 Y71.658 E.12363
G1 X146.989 Y74.934 E.11659
G1 X148.702 Y78.839 E.1337
G1 X150.041 Y82.62 E.12577
G1 X151.268 Y87.014 E.14304
G1 X152.218 Y91.583 E.14632
G1 X152.836 Y95.842 E.13494
G1 X153.245 Y100.626 E.15055
G1 X153.363 Y105.467 E.15183
G1 X153.217 Y109.853 E.1376
G1 X152.778 Y114.649 E.151
G1 X152.053 Y119.33 E.14852
G1 X151.154 Y123.447 E.13213
G1 X149.903 Y127.807 E.14222
G1 X148.542 Y131.564 E.12529
G1 X146.804 Y135.441 E.13322
G1 X145.017 Y138.699 E.11651
G1 X142.841 Y141.949 E.12263
G1 X140.691 Y144.566 E.10619
G1 X138.368 Y146.859 E.10234
G1 X135.896 Y148.789 E.09833
G1 X134.508 Y149.669 E.05153
G1 X133.313 Y150.318 E.04264
G1 X131.846 Y150.984 E.05051
G1 X130.604 Y151.441 E.04149
G1 X129.095 Y151.869 E.04918
G1 X127.809 Y152.127 E.04113
G1 X126.282 Y152.307 E.04821
G1 X124.979 Y152.354 E.04088
M73 P0 R52
G1 X123.448 Y152.285 E.04805
G1 X122.171 Y152.124 E.04036
G1 X120.905 Y151.869 E.04049
G1 X119.404 Y151.444 E.04891
G1 X118.154 Y150.984 E.04176
G1 X116.68 Y150.314 E.05077
G1 X115.242 Y149.521 E.05149
G1 X114.076 Y148.77 E.04349
G1 X111.619 Y146.848 E.09781
G1 X110.336 Y145.643 E.05519
G1 X109.085 Y144.318 E.05714
G1 X106.931 Y141.64 E.10776
G1 X104.781 Y138.361 E.12294
G1 X103.011 Y135.066 E.11727
G1 X101.297 Y131.158 E.1338
G1 X99.959 Y127.38 E.12567
G1 X98.732 Y122.986 E.14304
G1 X97.782 Y118.417 E.14632
G1 X97.164 Y114.156 E.135
G1 X96.755 Y109.374 E.15048
G1 X96.637 Y104.533 E.15183
G1 X96.783 Y100.147 E.1376
G1 X97.222 Y95.351 E.151
G1 X97.947 Y90.67 E.14852
G1 X98.954 Y86.126 E.14593
G1 X100.237 Y81.767 E.14247
G1 X101.622 Y78.034 E.12484
G1 X103.384 Y74.186 E.1327
G1 X105.151 Y71.029 E.11344
M204 S1000
; printing object WarhammerBase90x52.stl id:0 copy 0
;WIPE_START
M73 Q0 S52
G1 F8640
G1 X107.088 Y68.157 E-.8
;WIPE_END
G1 Z.6 F720
G1 X108.275 Y71.999 F10800
G1 Z.2 F720
G1 E.8 F2100
M204 S800
;TYPE:Perimeter
;WIDTH:0.419999
G1 F1200
G1 X109.08 Y70.796 E.04539
G1 X110.127 Y69.375 E.05534
G1 X111.213 Y68.054 E.05362
G1 X112.336 Y66.835 E.05197
G1 X113.26 Y65.934 E.04046
G1 X114.437 Y64.91 E.04892
G1 X115.633 Y64.001 E.0471
G1 X116.617 Y63.347 E.03705
G1 X117.105 Y63.053 E.01786
G1 X117.855 Y62.639 E.02686
G1 X118.352 Y62.389 E.01744
G1 X119.111 Y62.044 E.02614
G1 X119.613 Y61.841 E.01698
G1 X120.375 Y61.568 E.02538
G1 X121.404 Y61.267 E.03362
G1 X121.909 Y61.147 E.01627
G1 X122.684 Y60.999 E.02474
G1 X123.193 Y60.925 E.01613
G1 X123.971 Y60.847 E.02452
G1 X124.482 Y60.819 E.01605
G1 X125.261 Y60.812 E.02443
G1 X125.771 Y60.831 E.016
G1 X126.549 Y60.894 E.02447
G1 X127.059 Y60.959 E.01612
G1 X127.835 Y61.093 E.02469
G1 X128.343 Y61.204 E.0163
G1 X129.11 Y61.407 E.02488
G1 X130.134 Y61.745 E.03381
G1 X130.893 Y62.046 E.0256
G1 X131.395 Y62.269 E.01722
G1 X131.894 Y62.511 E.01739
G1 X132.647 Y62.911 E.02673
G1 X133.138 Y63.197 E.01782
G1 X133.876 Y63.665 E.0274
G1 X134.852 Y64.354 E.03746
G1 X135.328 Y64.721 E.01885
G1 X136.04 Y65.309 E.02895
G1 X136.975 Y66.155 E.03954
G1 X138.118 Y67.311 E.05097
G1 X139.226 Y68.57 E.05258
G1 X140.297 Y69.932 E.05433
G1 X141.123 Y71.09 E.0446
G1 X142.12 Y72.627 E.05744
G1 X142.881 Y73.918 E.04699
G1 X143.792 Y75.613 E.06034
G1 X144.65 Y77.39 E.06187
G1 X145.455 Y79.246 E.06343
G1 X146.058 Y80.78 E.05168
G1 X146.623 Y82.358 E.05255
G1 X147.277 Y84.391 E.06696
G1 X147.754 Y86.055 E.05427
G1 X148.295 Y88.187 E.06897
G1 X148.68 Y89.924 E.05578
G1 X149.102 Y92.135 E.07058
G1 X149.392 Y93.929 E.05698
G1 X149.692 Y96.201 E.07186
G1 X149.924 Y98.497 E.07236
G1 X150.085 Y100.8 E.07239
G1 X150.165 Y102.669 E.05865
G1 X150.194 Y105.381 E.08504
G1 X150.165 Y107.33 E.06112
G1 X150.085 Y109.2 E.05869
G1 X149.924 Y111.504 E.07242
G1 X149.744 Y113.342 E.0579
G1 X149.52 Y115.164 E.05756
G1 X149.179 Y117.418 E.07148
G1 X148.77 Y119.638 E.07078
G1 X148.294 Y121.814 E.06984
G1 X147.754 Y123.945 E.06893
G1 X147.276 Y125.61 E.05431
G1 X146.623 Y127.641 E.06689
G1 X145.91 Y129.609 E.06563
G1 X145.299 Y131.131 E.05142
G1 X144.483 Y132.972 E.06314
G1 X143.614 Y134.732 E.06154
G1 X142.694 Y136.41 E.06
G1 X141.725 Y138.001 E.05841
G1 X140.92 Y139.204 E.04539
G1 X139.873 Y140.625 E.05534
G1 X138.787 Y141.946 E.05362
G1 X137.664 Y143.165 E.05197
G1 X136.74 Y144.066 E.04046
G1 X135.566 Y145.087 E.04878
G1 X134.607 Y145.826 E.03796
G1 X133.629 Y146.497 E.03719
G1 X133.142 Y146.8 E.01798
G1 X132.394 Y147.228 E.02702
G1 X131.899 Y147.487 E.01752
G1 X131.141 Y147.846 E.0263
G1 X130.64 Y148.059 E.01707
G1 X129.88 Y148.346 E.02547
G1 X128.852 Y148.666 E.03376
G1 X128.348 Y148.795 E.01631
G1 X127.575 Y148.957 E.02476
G1 X126.806 Y149.075 E.02439
G1 X126.292 Y149.132 E.01621
G1 X125.514 Y149.181 E.02444
G1 X125 Y149.19 E.01612
G1 X124.486 Y149.181 E.01612
G1 X123.708 Y149.132 E.02444
G1 X123.199 Y149.076 E.01606
G1 X122.425 Y148.957 E.02455
G1 X121.652 Y148.795 E.02476
G1 X121.148 Y148.666 E.01631
G1 X120.12 Y148.346 E.03376
G1 X119.36 Y148.059 E.02547
G1 X118.859 Y147.846 E.01707
G1 X118.101 Y147.487 E.0263
G1 X117.109 Y146.949 E.03538
G1 X116.369 Y146.496 E.0272
G1 X115.391 Y145.825 E.03719
G1 X114.669 Y145.277 E.02842
G1 X114.199 Y144.894 E.01901
G1 X113.023 Y143.843 E.04945
G1 X111.881 Y142.688 E.05093
G1 X110.994 Y141.691 E.04184
G1 X109.914 Y140.348 E.05404
G1 X109.081 Y139.205 E.04435
G1 X108.275 Y138.001 E.04543
G1 X107.306 Y136.41 E.05841
G1 X106.386 Y134.732 E.06
G1 X105.521 Y132.979 E.06129
G1 X104.861 Y131.507 E.05058
G1 X104.09 Y129.608 E.06426
G1 X103.38 Y127.651 E.06527
G1 X102.85 Y126.022 E.05371
G1 X102.246 Y123.944 E.06785
G1 X101.706 Y121.814 E.0689
G1 X101.32 Y120.076 E.05582
G1 X100.898 Y117.865 E.07058
G1 X100.542 Y115.617 E.07136
G1 X100.307 Y113.799 E.05748
G1 X100.076 Y111.503 E.07235
G1 X99.915 Y109.2 E.07239
G1 X99.835 Y107.33 E.05869
G1 X99.8 Y105 E.07306
G1 X99.835 Y102.67 E.07306
G1 X99.915 Y100.8 E.05869
G1 X100.076 Y98.497 E.07239
G1 X100.308 Y96.201 E.07236
G1 X100.608 Y93.929 E.07186
G1 X100.897 Y92.136 E.05694
G1 X101.318 Y89.935 E.07026
G1 X101.706 Y88.186 E.05617
G1 X102.246 Y86.056 E.0689
G1 X102.85 Y83.978 E.06785
G1 X103.376 Y82.36 E.05334
G1 X104.09 Y80.391 E.06567
G1 X104.701 Y78.869 E.05142
G1 X105.517 Y77.028 E.06314
G1 X106.386 Y75.268 E.06154
G1 X107.306 Y73.59 E.06
G1 X108.243 Y72.05 E.05652
M204 S1000
G1 X107.957 Y71.796 F10800
M204 S800
;TYPE:External perimeter
G1 F1200
G1 X108.771 Y70.58 E.04588
G1 X109.83 Y69.143 E.05597
G1 X110.928 Y67.807 E.05422
G1 X112.065 Y66.572 E.05263
G1 X113.004 Y65.657 E.04111
G1 X114.196 Y64.62 E.04954
G1 X114.68 Y64.236 E.01937
G1 X115.416 Y63.693 E.02868
G1 X116.415 Y63.029 E.03761
G1 X116.917 Y62.726 E.01838
G1 X117.679 Y62.305 E.0273
G1 X118.189 Y62.049 E.01789
G1 X118.962 Y61.698 E.02662
G1 X119.478 Y61.488 E.01747
G1 X120.258 Y61.209 E.02597
G1 X121.307 Y60.902 E.03427
G1 X121.83 Y60.778 E.01685
G1 X122.621 Y60.627 E.02525
G1 X123.148 Y60.55 E.0167
G1 X123.942 Y60.471 E.02502
G1 X124.47 Y60.442 E.01658
G1 X125.266 Y60.435 E.02496
G1 X125.793 Y60.454 E.01653
G1 X126.588 Y60.519 E.02501
M73 Q1 S52
G1 X127.115 Y60.586 E.01666
G1 X127.907 Y60.723 E.0252
G1 X128.431 Y60.837 E.01681
G1 X129.218 Y61.046 E.02553
G1 X130.263 Y61.391 E.0345
G1 X131.039 Y61.699 E.02618
M73 P1 R52
G1 X131.553 Y61.927 E.01763
G1 X132.065 Y62.174 E.01782
G1 X132.83 Y62.582 E.02718
G1 X133.334 Y62.875 E.01828
G1 X134.085 Y63.351 E.02788
G1 X135.076 Y64.051 E.03804
G1 X135.563 Y64.426 E.01927
G1 X136.287 Y65.024 E.02944
G1 X137.236 Y65.883 E.04013
G1 X138.394 Y67.054 E.05164
G1 X139.516 Y68.329 E.05325
G1 X140.599 Y69.706 E.05493
G1 X141.435 Y70.877 E.04511
G1 X142.44 Y72.428 E.05795
G1 X143.21 Y73.733 E.04751
G1 X144.128 Y75.442 E.06083
G1 X144.993 Y77.233 E.06236
G1 X145.804 Y79.102 E.06388
G1 X146.411 Y80.647 E.05205
G1 X146.98 Y82.237 E.05295
G1 X147.637 Y84.281 E.06732
G1 X148.118 Y85.957 E.05467
G1 X148.662 Y88.1 E.06932
G1 X149.049 Y89.847 E.0561
G1 X149.474 Y92.07 E.07096
G1 X149.765 Y93.874 E.05729
G1 X150.067 Y96.157 E.07221
G1 X150.3 Y98.464 E.0727
G1 X150.462 Y100.778 E.07273
G1 X150.542 Y102.658 E.059
G1 X150.571 Y105.387 E.08557
G1 X150.542 Y107.341 E.06127
G1 X150.462 Y109.222 E.05903
G1 X150.3 Y111.536 E.07273
G1 X150.119 Y113.383 E.05819
G1 X149.894 Y115.215 E.05787
G1 X149.551 Y117.48 E.07183
G1 X149.139 Y119.712 E.07116
G1 X148.662 Y121.9 E.07021
G1 X148.118 Y124.043 E.06932
G1 X147.637 Y125.72 E.0547
G1 X146.98 Y127.763 E.06729
G1 X146.262 Y129.744 E.06607
G1 X145.646 Y131.278 E.05183
G1 X144.824 Y133.131 E.06356
G1 X143.948 Y134.906 E.06206
G1 X143.021 Y136.599 E.06052
G1 X142.043 Y138.204 E.05893
G1 X141.229 Y139.421 E.04591
G1 X140.17 Y140.857 E.05594
G1 X139.072 Y142.193 E.05422
G1 X137.935 Y143.428 E.05263
G1 X136.996 Y144.343 E.04111
G1 X135.805 Y145.379 E.04949
G1 X134.829 Y146.131 E.03863
G1 X133.835 Y146.813 E.0378
G1 X133.335 Y147.124 E.01846
G1 X132.575 Y147.559 E.02746
G1 X132.067 Y147.825 E.01798
G1 X131.295 Y148.19 E.02677
G1 X130.781 Y148.409 E.01752
G1 X130.002 Y148.703 E.02611
G1 X128.955 Y149.029 E.03438
G1 X128.433 Y149.162 E.01689
G1 X127.643 Y149.328 E.02531
G1 X126.855 Y149.449 E.025
G1 X126.324 Y149.507 E.01675
G1 X125.529 Y149.558 E.02498
G1 X125 Y149.567 E.01659
G1 X124.471 Y149.558 E.01659
G1 X123.676 Y149.507 E.02498
G1 X123.149 Y149.45 E.01662
G1 X122.357 Y149.328 E.02513
G1 X121.567 Y149.162 E.02531
G1 X121.045 Y149.029 E.01689
G1 X119.998 Y148.703 E.03438
G1 X119.219 Y148.409 E.02611
G1 X118.705 Y148.19 E.01752
G1 X117.933 Y147.825 E.02677
G1 X116.918 Y147.274 E.03621
G1 X116.164 Y146.812 E.02773
G1 X115.17 Y146.131 E.03778
G1 X114.436 Y145.573 E.02891
G1 X113.954 Y145.181 E.01948
G1 X112.763 Y144.117 E.05007
G1 X111.605 Y142.946 E.05164
G1 X110.706 Y141.935 E.04242
G1 X109.614 Y140.577 E.05464
G1 X108.771 Y139.421 E.04486
G1 X107.957 Y138.204 E.04591
G1 X106.979 Y136.599 E.05893
G1 X106.052 Y134.907 E.06049
G1 X105.18 Y133.14 E.06178
G1 X104.514 Y131.655 E.05103
G1 X103.738 Y129.743 E.0647
G1 X103.024 Y127.774 E.06567
G1 X102.489 Y126.133 E.05412
G1 X101.882 Y124.043 E.06824
G1 X101.339 Y121.901 E.06929
G1 X100.951 Y120.152 E.05617
G1 X100.526 Y117.93 E.07093
G1 X100.169 Y115.671 E.07171
G1 X99.933 Y113.842 E.05782
G1 X99.7 Y111.536 E.07267
G1 X99.538 Y109.222 E.07273
G1 X99.458 Y107.341 E.05903
G1 X99.423 Y105 E.07341
G1 X99.458 Y102.659 E.07341
G1 X99.538 Y100.778 E.05903
G1 X99.7 Y98.464 E.07273
G1 X99.933 Y96.157 E.0727
G1 X100.235 Y93.874 E.07221
G1 X100.526 Y92.071 E.05726
G1 X100.949 Y89.858 E.07064
G1 X101.339 Y88.099 E.05649
G1 X101.882 Y85.957 E.06929
G1 X102.489 Y83.867 E.06824
G1 X103.02 Y82.238 E.05372
G1 X103.738 Y80.256 E.0661
G1 X104.354 Y78.722 E.05183
G1 X105.176 Y76.869 E.06356
G1 X106.052 Y75.094 E.06206
G1 X106.979 Y73.401 E.06052
G1 X107.926 Y71.847 E.05706
M204 S1000
G1 X108.356 Y71.814 F10800
;WIPE_START
G1 F8640
G1 X108.771 Y70.58 E-.35165
G1 X109.83 Y69.143 E-.41218
G1 X109.929 Y69.022 E-.03617
;WIPE_END
G1 Z.6 F720
G1 X139.419 Y68.999 F10800
G1 Z.2 F720
G1 E.8 F2100
M204 S800
;TYPE:Solid infill
;WIDTH:0.420194
G1 F1200
G1 X136.778 Y66.358 E.11717
G1 X135.856 Y65.524 E.039
G1 X134.683 Y64.581 E.04721
G1 X133.95 Y64.063 E.02816
G1 X140.276 Y70.389 E.28065
G1 X140.889 Y71.249 E.03313
G1 X141.419 Y72.066 E.03055
G1 X132.514 Y63.161 E.39507
G1 X131.41 Y62.591 E.03898
G1 X142.288 Y73.469 E.4826
G1 X142.635 Y74.056 E.02139
G1 X142.974 Y74.688 E.0225
G1 X130.468 Y62.182 E.55482
G1 X130.038 Y62.011 E.01452
G1 X129.629 Y61.876 E.01351
G1 X143.582 Y75.83 E.61904
G1 X144.081 Y76.862 E.03596
G1 X128.85 Y61.631 E.67572
G1 X128.133 Y61.448 E.02321
G1 X144.546 Y77.861 E.72816
G1 X144.955 Y78.803 E.03222
G1 X127.468 Y61.317 E.77578
G1 X126.834 Y61.215 E.02014
G1 X145.337 Y79.719 E.8209
G1 X145.682 Y80.597 E.02959
G1 X126.24 Y61.156 E.86251
G1 X125.666 Y61.115 E.01805
G1 X145.995 Y81.444 E.90189
G1 X146.293 Y82.275 E.02769
G1 X125.121 Y61.103 E.93929
G1 X124.586 Y61.102 E.01678
G1 X146.555 Y83.071 E.97464
G1 X146.808 Y83.858 E.02593
G1 X124.075 Y61.125 E1.00854
G1 X123.586 Y61.17 E.0154
G1 X147.053 Y84.636 E1.04108
G1 X147.267 Y85.384 E.02441
G1 X123.106 Y61.223 E1.07189
G1 X122.644 Y61.294 E.01466
G1 X147.482 Y86.132 E1.10193
G1 X147.663 Y86.847 E.02314
M73 P2 R52
M73 Q2 S52
G1 X122.196 Y61.38 E1.12983
G1 X121.756 Y61.474 E.01411
G1 X147.844 Y87.561 E1.15736
G1 X148.025 Y88.275 E.02311
G1 X121.331 Y61.582 E1.18424
G1 X120.919 Y61.703 E.01347
G1 X148.177 Y88.961 E1.20929
G1 X148.329 Y89.647 E.02204
G1 X120.506 Y61.824 E1.23435
G1 X120.111 Y61.963 E.01314
M73 P2 R51
G1 X148.467 Y90.319 E1.258
G1 X148.593 Y90.978 E.02105
G1 X119.718 Y62.103 E1.28103
G1 X119.339 Y62.257 E.01283
G1 X148.719 Y91.638 E1.30345
G1 X148.841 Y92.294 E.02093
M73 Q2 S51
G1 X118.968 Y62.42 E1.32532
G1 X118.601 Y62.587 E.01265
G1 X148.944 Y92.93 E1.34615
G1 X149.047 Y93.566 E.02021
G1 X118.242 Y62.761 E1.36665
G1 X117.89 Y62.943 E.01243
G1 X149.142 Y94.194 E1.38646
G1 X149.223 Y94.809 E.01946
G1 X117.546 Y63.133 E1.40531
G1 X117.204 Y63.324 E.01229
G1 X149.304 Y95.424 E1.4241
G1 X149.386 Y96.039 E.01946
G1 X116.871 Y63.525 E1.44249
G1 X116.547 Y63.734 E.0121
M73 P3 R51
M73 Q3 S51
G1 X149.452 Y96.639 E1.45981
G1 X149.512 Y97.233 E.01873
G1 X116.226 Y63.947 E1.47672
G1 X115.906 Y64.16 E.01206
G1 X149.572 Y97.826 E1.49358
G1 X149.632 Y98.419 E.0187
G1 X115.596 Y64.384 E1.50997
G1 X115.293 Y64.614 E.01193
G1 X149.675 Y98.997 E1.52536
G1 X149.716 Y99.57 E.01802
G1 X114.99 Y64.845 E1.54058
G1 X114.687 Y65.075 E.01193
G1 X149.756 Y100.144 E1.55582
G1 X149.796 Y100.718 E.01805
G1 X114.397 Y65.319 E1.57046
G1 X114.112 Y65.567 E.01185
G1 X149.822 Y101.278 E1.58428
G1 X149.846 Y101.835 E.01749
G1 X113.827 Y65.816 E1.59797
G1 X113.542 Y66.064 E.01185
G1 X149.87 Y102.392 E1.61167
G1 X149.886 Y102.942 E.01726
G1 X113.267 Y66.323 E1.62458
G1 X112.996 Y66.586 E.01185
G1 X149.894 Y103.484 E1.63696
