; generated by PrusaSlicer 2.7.4+win64 on 2024-04-20 at 15:41:51 UTC

; 

; external perimeters extrusion width = 0.45mm
; perimeters extrusion width = 0.45mm
; infill extrusion width = 0.45mm
; solid infill extrusion width = 0.45mm
; top infill extrusion width = 0.40mm
; first layer extrusion width = 0.42mm

M73 P0 R195
M73 Q0 S195
M201 X1000 Y1000 Z200 E5000 ; sets maximum accelerations, mm/sec^2
M203 X200 Y200 Z12 E120 ; sets maximum feedrates, mm / sec
M204 S1250 T1250 ; sets acceleration (S) and retract acceleration (R), mm/sec^2
M205 X8.00 Y8.00 Z0.40 E4.50 ; sets the jerk limits, mm/sec
M205 S0 T0 ; sets the minimum extruding and travel feed rate, mm/sec

; printing object WarhammerBase90x52_Remeshed.stl id:0 copy 0
; stop printing object WarhammerBase90x52_Remeshed.stl id:0 copy 0

;TYPE:Custom
M862.3 P "MK3S" ; printer model check
M862.1 P0.4 ; nozzle diameter check
M115 U3.10.1 ; tell printer latest fw version
G90 ; use absolute coordinates
M83 ; extruder relative mode
M104 S215 ; set extruder temp
M140 S60 ; set bed temp
M190 S60 ; wait for bed temp
M109 S215 ; wait for extruder temp
G28 W ; home all without mesh bed level
G80 ; mesh bed leveling
G1 Z0.2 F720
G1 Y-3 F1000 ; go outside print area
G92 E0
G1 X60 E9 F1000 ; intro line
G1 X100 E12.5 F1000 ; intro line
G92 E0
M221 S100

; Don't change E values below. Excessive value can damage the printer.
M907 E430 ; set extruder motor current
G21 ; set units to millimeters
G90 ; use absolute coordinates
M83 ; use relative distances for extrusion
M900 K0.05 ; Filament gcode LA 1.5
M900 K30 ; Filament gcode LA 1.0
M107
;LAYER_CHANGE
;Z:0.2
;HEIGHT:0.2
G1 E-.8 F2100
G1 Z.6 F720
G1 X105.775 Y70.108 F10800
G1 Z.2 F720
G1 E.8 F2100
M204 S800
;TYPE:Skirt/Brim
;WIDTH:0.42
G1 F1200
G1 X106.959 Y68.322 E.06719
G1 X109.295 Y65.449 E.1161
G1 X111.66 Y63.115 E.10418
G1 X114.141 Y61.185 E.09856
G1 X116.664 Y59.694 E.09189
G1 X118.087 Y59.043 E.04906
G1 X119.441 Y58.544 E.04524
G1 X120.858 Y58.142 E.04618
G1 X122.137 Y57.882 E.04092
G1 X123.676 Y57.696 E.04861
G1 X125.06 Y57.646 E.04342
G1 X126.511 Y57.711 E.04554
G1 X129.142 Y58.142 E.08359
G1 X130.56 Y58.544 E.04621
G1 X131.908 Y59.041 E.04505
G1 X133.33 Y59.691 E.04902
G1 X135.858 Y61.185 E.09207
G1 X138.339 Y63.115 E.09856
G1 X140.705 Y65.449 E.10421
G1 X143.04 Y68.32 E.11603
G1 X145.032 Y71.325 E.11304
G1 X146.975 Y74.906 E.12774
G1 X148.557 Y78.474 E.12238
G1 X150.024 Y82.569 E.13639
G1 X151.167 Y86.606 E.13155
G1 X152.139 Y91.137 E.1453
G1 X152.829 Y95.782 E.14724
G1 X153.221 Y100.218 E.13963
G1 X153.364 Y104.955 E.14859
G1 X153.221 Y109.775 E.15119
G1 X152.83 Y114.214 E.13972
G1 X152.139 Y118.863 E.14737
G1 X151.168 Y123.391 E.1452
G1 X150.025 Y127.429 E.13158
G1 X148.557 Y131.526 E.13646
G1 X146.975 Y135.094 E.12238
G1 X145.032 Y138.675 E.12774
G1 X143.041 Y141.678 E.11297
G1 X140.705 Y144.551 E.1161
G1 X138.34 Y146.885 E.10418
G1 X135.86 Y148.814 E.09851
G1 X133.336 Y150.306 E.09193
G1 X131.914 Y150.956 E.04902
G1 X130.56 Y151.456 E.04526
G1 X129.141 Y151.858 E.04624
G1 X127.863 Y152.118 E.04089
G1 X126.511 Y152.289 E.04273
G1 X124.962 Y152.355 E.04861
G1 X123.489 Y152.289 E.04623
G1 X122.137 Y152.118 E.04273
G1 X120.858 Y151.858 E.04092
G1 X119.441 Y151.456 E.04618
G1 X118.092 Y150.959 E.04508
G1 X116.671 Y150.31 E.04898
G1 X114.141 Y148.815 E.09214
G1 X111.661 Y146.885 E.09853
G1 X109.295 Y144.551 E.10421
G1 X106.961 Y141.68 E.11601
G1 X104.968 Y138.675 E.11306
G1 X103.025 Y135.094 E.12774
G1 X101.443 Y131.526 E.12238
G1 X99.976 Y127.431 E.13639
G1 X98.832 Y123.391 E.13165
G1 X97.861 Y118.863 E.1452
G1 X97.171 Y114.218 E.14724
G1 X96.756 Y109.381 E.15222
G1 X96.636 Y104.944 E.13917
G1 X96.784 Y100.129 E.15104
G1 X97.218 Y95.391 E.14918
G1 X97.877 Y91.049 E.1377
G1 X98.832 Y86.609 E.1424
G1 X99.976 Y82.569 E.13165
G1 X101.443 Y78.474 E.13639
G1 X103.023 Y74.909 E.12226
G1 X104.968 Y71.325 E.12786
G1 X105.742 Y70.158 E.04391
M204 S1000
;WIPE_START
G1 F8640
G1 X105.775 Y70.108 E-.01383
G1 X106.959 Y68.322 E-.49478
G1 X107.755 Y67.343 E-.29139
;WIPE_END
G1 Z.6 F720
; printing object WarhammerBase90x52_Remeshed.stl id:0 copy 0
G1 X108.586 Y72.213 F10800
G1 Z.2 F720
G1 E.8 F2100
M204 S800
;TYPE:Perimeter
;WIDTH:0.419999
G1 F1200
G1 X109.572 Y70.754 E.05521
G1 X110.464 Y69.557 E.04681
G1 X111.491 Y68.31 E.05065
G1 X112.607 Y67.097 E.05168
G1 X113.55 Y66.18 E.04124
G1 X114.664 Y65.211 E.04629
G1 X115.192 Y64.794 E.0211
G1 X116.345 Y63.971 E.04442
G1 X117.032 Y63.535 E.02551
G1 X118.08 Y62.948 E.03766
G1 X119.246 Y62.397 E.04044
G1 X120.426 Y61.949 E.03957
G1 X121.534 Y61.622 E.03622
G1 X122.703 Y61.378 E.03744
G1 X123.24 Y61.299 E.01702
G1 X123.95 Y61.227 E.02238
G1 X125.052 Y61.188 E.03457
G1 X125.678 Y61.204 E.01963
G1 X126.754 Y61.298 E.03387
M73 P0 R194
G1 X127.476 Y61.409 E.0229
G1 X128.571 Y61.65 E.03515
G1 X129.737 Y62.004 E.03821
G1 X130.757 Y62.398 E.03428
G1 X131.48 Y62.727 E.02491
G1 X131.965 Y62.971 E.01702
G1 X132.666 Y63.357 E.02509
G1 X133.198 Y63.677 E.01947
G1 X134.355 Y64.457 E.04375
G1 X135.346 Y65.219 E.0392
G1 X135.997 Y65.771 E.02676
G1 X136.489 Y66.215 E.02078
G1 X137.579 Y67.29 E.048
G1 X138.508 Y68.308 E.04321
G1 X139.536 Y69.557 E.05072
G1 X140.429 Y70.754 E.04682
G1 X141.414 Y72.213 E.0552
G1 X142.374 Y73.791 E.05791
G1 X143.264 Y75.413 E.05801
G1 X143.984 Y76.855 E.05054
G1 X144.798 Y78.654 E.06191
G1 X145.42 Y80.171 E.05141
G1 X146.133 Y82.095 E.06433
G1 X146.674 Y83.719 E.05367
G1 X147.274 Y85.733 E.06589
G1 X147.825 Y87.843 E.06838
G1 X148.301 Y89.956 E.06791
G1 X148.655 Y91.773 E.05804
G1 X149.02 Y93.989 E.07042
G1 X149.313 Y96.2 E.06993
G1 X149.547 Y98.508 E.07274
G1 X149.686 Y100.43 E.06042
G1 X149.787 Y102.643 E.06946
G1 X149.819 Y105.295 E.08316
G1 X149.8 Y106.875 E.04954
G1 X149.709 Y109.18 E.07233
G1 X149.546 Y111.493 E.0727
G1 X149.324 Y113.703 E.06964
G1 X149.076 Y115.625 E.06076
G1 X148.725 Y117.836 E.07019
G1 X148.321 Y119.95 E.06748
G1 X147.917 Y121.772 E.05851
G1 X147.38 Y123.883 E.0683
G1 X146.794 Y125.897 E.06577
G1 X146.256 Y127.55 E.0545
G1 X145.574 Y129.432 E.06276
G1 X144.933 Y131.028 E.05393
G1 X144.148 Y132.798 E.06071
G1 X143.265 Y134.586 E.06253
G1 X142.374 Y136.209 E.05805
G1 X141.413 Y137.789 E.05798
G1 X140.428 Y139.247 E.05517
G1 X139.536 Y140.443 E.04678
G1 X138.509 Y141.69 E.05065
G1 X137.399 Y142.896 E.05139
G1 X136.452 Y143.818 E.04144
G1 X135.336 Y144.789 E.04638
G1 X134.808 Y145.205 E.02108
G1 X133.651 Y146.032 E.04459
G1 X132.968 Y146.465 E.02536
G1 X131.919 Y147.053 E.03771
G1 X131.291 Y147.362 E.02194
G1 X130.201 Y147.826 E.03714
G1 X129.574 Y148.051 E.02089
G1 X128.466 Y148.378 E.03622
G1 X127.306 Y148.621 E.03716
G1 X126.21 Y148.76 E.03464
G1 X125.492 Y148.804 E.02255
G1 X124.957 Y148.813 E.01678
G1 X123.783 Y148.76 E.03685
G1 X123.246 Y148.702 E.01694
G1 X122.528 Y148.592 E.02278
G1 X121.428 Y148.35 E.03531
G1 X120.798 Y148.171 E.02054
G1 X120.263 Y147.996 E.01765
G1 X119.244 Y147.602 E.03426
G1 X118.52 Y147.273 E.02493
G1 X118.032 Y147.028 E.01712
G1 X117.334 Y146.643 E.02499
G1 X116.802 Y146.323 E.01947
G1 X115.645 Y145.543 E.04375
G1 X114.655 Y144.781 E.03917
G1 X113.511 Y143.785 E.04756
G1 X112.421 Y142.71 E.048
G1 X111.492 Y141.692 E.04321
G1 X110.464 Y140.443 E.05072
G1 X109.571 Y139.246 E.04682
G1 X108.586 Y137.788 E.05517
G1 X107.626 Y136.209 E.05794
G1 X106.737 Y134.589 E.05794
G1 X105.888 Y132.872 E.06006
G1 X105.204 Y131.349 E.05235
G1 X104.426 Y129.431 E.0649
G1 X103.744 Y127.55 E.06273
G1 X103.206 Y125.897 E.0545
G1 X102.62 Y123.883 E.06577
G1 X102.083 Y121.772 E.0683
G1 X101.679 Y119.95 E.05851
G1 X101.276 Y117.837 E.06745
G1 X100.925 Y115.625 E.07022
G1 X100.676 Y113.704 E.06074
G1 X100.454 Y111.493 E.06967
G1 X100.292 Y109.181 E.07267
G1 X100.2 Y106.875 E.07236
G1 X100.177 Y104.953 E.06027
G1 X100.213 Y102.643 E.07244
G1 X100.314 Y100.43 E.06946
G1 X100.453 Y98.508 E.06042
G1 X100.687 Y96.2 E.07274
G1 X100.981 Y93.989 E.06993
G1 X101.345 Y91.773 E.07041
G1 X101.699 Y89.956 E.05804
G1 X102.174 Y87.848 E.06775
G1 X102.726 Y85.733 E.06854
G1 X103.326 Y83.72 E.06586
G1 X103.867 Y82.095 E.0537
G1 X104.58 Y80.171 E.06433
G1 X105.202 Y78.654 E.05141
G1 X106.018 Y76.853 E.06199
G1 X106.736 Y75.413 E.05045
G1 X107.626 Y73.791 E.05801
G1 X108.555 Y72.264 E.05604
M204 S1000
G1 X108.555 Y72.264 F10800
G1 X108.268 Y72.009
M204 S800
G1 F1200
G1 X109.264 Y70.535 E.05578
G1 X110.167 Y69.324 E.04736
G1 X111.206 Y68.062 E.05125
G1 X112.337 Y66.834 E.05235
G1 X113.294 Y65.902 E.04188
G1 X114.423 Y64.921 E.0469
G1 X114.963 Y64.494 E.02159
G1 X116.138 Y63.656 E.04525
G1 X116.839 Y63.211 E.02603
G1 X117.904 Y62.614 E.03828
G1 X119.099 Y62.05 E.04143
G1 X119.665 Y61.821 E.01914
G1 X120.309 Y61.59 E.02145
G1 X121.438 Y61.258 E.0369
G1 X122.64 Y61.006 E.03851
G1 X123.193 Y60.925 E.01752
G1 X123.924 Y60.851 E.02304
G1 X125.05 Y60.81 E.03533
G1 X125.696 Y60.827 E.02026
G1 X126.803 Y60.924 E.03484
G1 X127.545 Y61.038 E.02354
G1 X128.664 Y61.284 E.03592
G1 X129.864 Y61.649 E.03933
G1 X130.903 Y62.05 E.03492
G1 X131.642 Y62.386 E.02545
G1 X132.141 Y62.637 E.01751
G1 X132.855 Y63.03 E.02555
G1 X133.401 Y63.359 E.01999
G1 X134.576 Y64.151 E.04443
G1 X135.583 Y64.926 E.03984
G1 X136.245 Y65.487 E.02721
G1 X136.748 Y65.941 E.02125
G1 X137.851 Y67.029 E.04858
G1 X138.793 Y68.061 E.04381
G1 X139.833 Y69.324 E.0513
G1 X140.736 Y70.535 E.04736
G1 X141.732 Y72.009 E.05578
G1 X142.701 Y73.602 E.05846
G1 X143.598 Y75.238 E.0585
M73 Q0 S194
G1 X144.324 Y76.693 E.05098
G1 X145.144 Y78.505 E.06236
G1 X145.771 Y80.034 E.05181
G1 X146.489 Y81.97 E.06474
G1 X147.034 Y83.606 E.05407
G1 X147.637 Y85.632 E.06628
G1 X148.191 Y87.754 E.06876
G1 X148.67 Y89.878 E.06827
G1 X149.026 Y91.706 E.05839
G1 X149.393 Y93.934 E.0708
G1 X149.687 Y96.156 E.07028
G1 X149.922 Y98.476 E.07311
G1 X150.063 Y100.408 E.06074
G1 X150.164 Y102.632 E.0698
G1 X150.196 Y105.3 E.08366
G1 X150.177 Y106.884 E.04967
G1 X150.085 Y109.201 E.07271
G1 X149.922 Y111.525 E.07305
G1 X149.699 Y113.746 E.06999
G1 X149.449 Y115.679 E.06111
G1 X149.096 Y117.901 E.07054
G1 X148.69 Y120.026 E.06783
G1 X148.284 Y121.859 E.05887
G1 X147.744 Y123.982 E.06868
G1 X147.155 Y126.008 E.06615
G1 X146.612 Y127.673 E.05491
G1 X145.926 Y129.567 E.06316
G1 X145.28 Y131.175 E.05433
G1 X144.489 Y132.958 E.06116
G1 X143.6 Y134.76 E.063
G1 X142.701 Y136.398 E.05859
G1 X141.731 Y137.993 E.05853
G1 X140.736 Y139.465 E.05571
G1 X139.833 Y140.676 E.04736
G1 X138.794 Y141.938 E.05125
G1 X137.67 Y143.159 E.05203
G1 X136.708 Y144.096 E.04211
G1 X135.577 Y145.079 E.04698
G1 X135.037 Y145.505 E.02157
G1 X133.859 Y146.347 E.0454
G1 X133.161 Y146.789 E.0259
G1 X132.095 Y147.387 E.03832
G1 X131.452 Y147.704 E.02248
G1 X130.335 Y148.179 E.03806
G1 X129.691 Y148.41 E.02145
G1 X128.562 Y148.742 E.0369
G1 X127.365 Y148.993 E.03835
G1 X126.246 Y149.136 E.03537
G1 X125.507 Y149.181 E.02321
G1 X124.955 Y149.19 E.01731
G1 X123.75 Y149.135 E.03782
G1 X123.197 Y149.076 E.01744
G1 X122.459 Y148.963 E.02341
G1 X121.336 Y148.716 E.03605
G1 X120.688 Y148.532 E.02112
G1 X120.136 Y148.351 E.01821
G1 X119.097 Y147.95 E.03492
G1 X118.358 Y147.614 E.02545
G1 X117.856 Y147.361 E.01763
G1 X117.146 Y146.97 E.02541
G1 X116.599 Y146.642 E.02
G1 X115.424 Y145.849 E.04445
G1 X114.418 Y145.074 E.03982
G1 X113.252 Y144.059 E.04847
G1 X112.149 Y142.972 E.04856
G1 X111.207 Y141.939 E.04383
G1 X110.167 Y140.676 E.0513
G1 X109.264 Y139.465 E.04736
G1 X108.269 Y137.991 E.05576
G1 X107.299 Y136.398 E.05848
G1 X106.402 Y134.763 E.05847
G1 X105.546 Y133.033 E.06052
G1 X104.857 Y131.497 E.05278
G1 X104.074 Y129.566 E.06533
G1 X103.388 Y127.673 E.06313
G1 X102.845 Y126.008 E.05491
G1 X102.256 Y123.982 E.06615
G1 X101.716 Y121.859 E.06868
G1 X101.31 Y120.026 E.05887
G1 X100.904 Y117.902 E.0678
G1 X100.551 Y115.679 E.07057
G1 X100.302 Y113.747 E.06108
G1 X100.078 Y111.525 E.07002
G1 X99.915 Y109.201 E.07305
G1 X99.823 Y106.884 E.07271
G1 X99.8 Y104.952 E.06058
G1 X99.837 Y102.631 E.07278
G1 X99.937 Y100.408 E.06977
G1 X100.078 Y98.476 E.06074
G1 X100.313 Y96.156 E.07311
G1 X100.607 Y93.934 E.07028
G1 X100.974 Y91.706 E.0708
G1 X101.33 Y89.878 E.05839
G1 X101.808 Y87.759 E.06811
G1 X102.363 Y85.632 E.06892
G1 X102.966 Y83.606 E.06628
G1 X103.511 Y81.97 E.05407
G1 X104.229 Y80.034 E.06474
G1 X104.856 Y78.505 E.05181
G1 X105.677 Y76.691 E.06243
G1 X106.402 Y75.238 E.05091
G1 X107.299 Y73.602 E.0585
G1 X108.237 Y72.06 E.05659
M204 S1000
G1 X108.237 Y72.06 F10800
G1 X107.951 Y71.805
M204 S800
;TYPE:External perimeter
G1 F1200
G1 X108.956 Y70.317 E.0563
G1 X109.87 Y69.091 E.04795
G1 X110.922 Y67.814 E.05188
G1 X112.067 Y66.571 E.05299
G1 X113.039 Y65.625 E.04253
G1 X114.183 Y64.631 E.04752
G1 X114.735 Y64.195 E.02206
G1 X115.93 Y63.341 E.04605
G1 X116.646 Y62.887 E.02658
G1 X117.729 Y62.28 E.03893
G1 X118.951 Y61.703 E.04237
G1 X119.531 Y61.469 E.01961
G1 X120.192 Y61.231 E.02203
G1 X121.343 Y60.893 E.03761
G1 X122.578 Y60.634 E.03956
G1 X123.147 Y60.55 E.01803
G1 X123.899 Y60.474 E.0237
G1 X125.048 Y60.433 E.03605
G1 X125.714 Y60.451 E.02089
G1 X126.852 Y60.55 E.03582
G1 X127.614 Y60.667 E.02417
G1 X128.756 Y60.918 E.03666
G1 X129.425 Y61.108 E.02181
G1 X129.991 Y61.293 E.01867
G1 X131.049 Y61.703 E.03558
G1 X131.805 Y62.046 E.02603
G1 X132.316 Y62.303 E.01793
G1 X133.043 Y62.703 E.02602
G1 X133.604 Y63.04 E.02052
G1 X134.797 Y63.845 E.04512
G1 X135.819 Y64.632 E.04044
G1 X136.494 Y65.203 E.02772
G1 X137.007 Y65.667 E.02169
G1 X138.123 Y66.767 E.04913
G1 X139.078 Y67.814 E.04443
G1 X140.13 Y69.091 E.05188
G1 X141.044 Y70.317 E.04795
G1 X142.049 Y71.805 E.0563
G1 X143.027 Y73.413 E.05901
G1 X143.933 Y75.063 E.05902
G1 X144.665 Y76.531 E.05143
G1 X145.49 Y78.355 E.06277
G1 X146.123 Y79.897 E.05226
G1 X146.844 Y81.845 E.06513
G1 X147.393 Y83.492 E.05443
G1 X148 Y85.53 E.06667
G1 X148.557 Y87.665 E.06918
G1 X149.039 Y89.801 E.06866
G1 X149.397 Y91.639 E.05871
G1 X149.766 Y93.879 E.07118
G1 X150.062 Y96.112 E.07063
G1 X150.298 Y98.443 E.07346
G1 X150.439 Y100.385 E.06105
G1 X150.54 Y102.62 E.07015
G1 X150.573 Y105.304 E.08416
G1 X150.554 Y106.894 E.04986
G1 X150.462 Y109.222 E.07305
G1 X150.298 Y111.557 E.07339
G1 X150.073 Y113.789 E.07034
G1 X149.822 Y115.732 E.06143
G1 X149.468 Y117.966 E.07092
G1 X149.059 Y120.103 E.06822
G1 X148.651 Y121.946 E.05918
G1 X148.108 Y124.082 E.0691
G1 X147.515 Y126.119 E.06652
G1 X146.969 Y127.795 E.05527
G1 X146.279 Y129.701 E.06356
G1 X145.627 Y131.322 E.05478
G1 X144.831 Y133.118 E.0616
G1 X143.934 Y134.934 E.06351
G1 X143.027 Y136.587 E.05912
G1 X142.048 Y138.196 E.05905
G1 X141.044 Y139.683 E.05626
G1 X140.13 Y140.909 E.04795
G1 X139.078 Y142.186 E.05188
G1 X137.94 Y143.422 E.05268
G1 X136.963 Y144.373 E.04275
G1 X135.817 Y145.369 E.04761
G1 X135.266 Y145.805 E.02203
G1 X134.587 Y146.305 E.02644
G1 X134.066 Y146.662 E.0198
G1 X133.354 Y147.113 E.02643
G1 X132.271 Y147.72 E.03893
G1 X131.612 Y148.045 E.02304
G1 X130.469 Y148.531 E.03894
G1 X129.808 Y148.769 E.02203
G1 X128.658 Y149.107 E.03758
G1 X128.089 Y149.239 E.01831
G1 X127.424 Y149.366 E.02123
G1 X126.281 Y149.511 E.03613
G1 X125.522 Y149.558 E.02384
G1 X124.953 Y149.567 E.01784
G1 X124.286 Y149.55 E.02092
G1 X123.148 Y149.45 E.03582
G1 X122.389 Y149.333 E.02408
G1 X121.244 Y149.081 E.03676
G1 X120.578 Y148.893 E.0217
G1 X120.009 Y148.707 E.01877
G1 X118.951 Y148.297 E.03558
G1 X118.195 Y147.954 E.02603
G1 X117.68 Y147.695 E.01807
G1 X116.957 Y147.297 E.02588
G1 X116.397 Y146.96 E.02049
G1 X115.204 Y146.155 E.04512
G1 X114.181 Y145.368 E.04047
G1 X113.507 Y144.797 E.0277
G1 X112.993 Y144.333 E.02171
G1 X111.877 Y143.233 E.04913
G1 X110.922 Y142.186 E.04443
G1 X109.87 Y140.909 E.05188
G1 X108.956 Y139.683 E.04795
G1 X107.951 Y138.195 E.0563
G1 X106.973 Y136.587 E.05901
G1 X106.068 Y134.937 E.05901
G1 X105.205 Y133.194 E.06098
G1 X104.51 Y131.645 E.05323
G1 X103.722 Y129.701 E.06577
G1 X103.031 Y127.796 E.06354
G1 X102.485 Y126.119 E.0553
G1 X101.892 Y124.082 E.06652
G1 X101.35 Y121.947 E.06906
G1 X100.94 Y120.103 E.05923
G1 X100.533 Y117.967 E.06818
G1 X100.178 Y115.732 E.07096
G1 X99.927 Y113.79 E.0614
G1 X99.702 Y111.557 E.07037
G1 X99.538 Y109.222 E.07339
G1 X99.446 Y106.894 E.07305
