; generated by PrusaSlicer 2.7.2+win64 on 2024-03-26 at 15:06:31 UTC

; 

; external perimeters extrusion width = 0.45mm
; perimeters extrusion width = 0.45mm
; infill extrusion width = 0.45mm
; solid infill extrusion width = 0.45mm
; top infill extrusion width = 0.40mm
; first layer extrusion width = 0.42mm

M73 P0 R50
M73 Q0 S50
M201 X1000 Y1000 Z200 E5000 ; sets maximum accelerations, mm/sec^2
M203 X200 Y200 Z12 E120 ; sets maximum feedrates, mm / sec
M204 S1250 T1250 ; sets acceleration (S) and retract acceleration (R), mm/sec^2
M205 X8.00 Y8.00 Z0.40 E4.50 ; sets the jerk limits, mm/sec
M205 S0 T0 ; sets the minimum extruding and travel feed rate, mm/sec

; printing object WarhammerBase90x52.stl id:0 copy 0
; stop printing object WarhammerBase90x52.stl id:0 copy 0

;TYPE:Custom
M862.3 P "MK3S" ; printer model check
M862.1 P0.4 ; nozzle diameter check
M115 U3.10.1 ; tell printer latest fw version
G90 ; use absolute coordinates
M83 ; extruder relative mode
M104 S215 ; set extruder temp
M140 S60 ; set bed temp
M190 S60 ; wait for bed temp
M109 S215 ; wait for extruder temp
G28 W ; home all without mesh bed level
G80 ; mesh bed leveling
G1 Z0.2 F720
G1 Y-3 F1000 ; go outside print area
G92 E0
G1 X60 E9 F1000 ; intro line
G1 X100 E12.5 F1000 ; intro line
G92 E0
M221 S95

; Don't change E values below. Excessive value can damage the printer.
M907 E430 ; set extruder motor current
G21 ; set units to millimeters
G90 ; use absolute coordinates
M83 ; use relative distances for extrusion
M900 K0.05 ; Filament gcode LA 1.5
M900 K30 ; Filament gcode LA 1.0
M107
;LAYER_CHANGE
;Z:0.2
;HEIGHT:0.2
G1 E-.8 F2100
G1 Z.6 F720
G1 X105.177 Y70.982 F10800
G1 Z.2 F720
G1 E.8 F2100
M204 S800
;TYPE:Skirt/Brim
;WIDTH:0.42
G1 F1200
G1 X107.169 Y68.036 E.1115
G1 X108.333 Y66.557 E.05901
G1 X109.552 Y65.17 E.0579
G1 X111.907 Y62.901 E.10254
G1 X114.384 Y61.022 E.09748
G1 X115.782 Y60.165 E.05141
G1 X116.994 Y59.531 E.04289
G1 X118.45 Y58.898 E.04978
G1 X119.711 Y58.458 E.04188
G1 X121.214 Y58.06 E.04875
G1 X122.505 Y57.825 E.04114
G1 X124.032 Y57.672 E.04812
G1 X126.595 Y57.719 E.08037
G1 X128.12 Y57.926 E.04825
G1 X129.404 Y58.207 E.04121
G1 X130.9 Y58.659 E.049
G1 X132.146 Y59.141 E.04189
G1 X133.595 Y59.826 E.05025
G1 X134.788 Y60.498 E.04293
G1 X136.177 Y61.405 E.05201
G1 X138.623 Y63.368 E.09834
G1 X140.938 Y65.709 E.10323
G1 X143.07 Y68.361 E.10669
G1 X145.23 Y71.658 E.12358
G1 X146.989 Y74.935 E.11661
G1 X148.704 Y78.845 E.13387
G1 X150.042 Y82.625 E.12573
G1 X151.268 Y87.015 E.14291
G1 X152.218 Y91.584 E.14632
G1 X152.836 Y95.842 E.13491
G1 X153.245 Y100.64 E.15098
G1 X153.363 Y105.474 E.15161
G1 X153.216 Y109.863 E.13769
G1 X152.778 Y114.648 E.15066
G1 X152.053 Y119.33 E.14855
G1 X151.156 Y123.439 E.13187
G1 X149.903 Y127.807 E.14248
G1 X148.542 Y131.564 E.12529
G1 X146.804 Y135.441 E.13322
G1 X145.017 Y138.699 E.11651
G1 X142.845 Y141.944 E.12243
G1 X140.691 Y144.566 E.1064
G1 X138.363 Y146.864 E.10256
G1 X135.901 Y148.786 E.09793
G1 X134.508 Y149.669 E.05171
G1 X133.301 Y150.324 E.04306
G1 X131.847 Y150.984 E.05007
G1 X130.599 Y151.443 E.04169
G1 X129.095 Y151.869 E.04901
G1 X127.816 Y152.126 E.0409
G1 X126.288 Y152.307 E.04824
G1 X124.978 Y152.354 E.0411
G1 X123.448 Y152.285 E.04802
G1 X122.196 Y152.128 E.03956
G1 X120.909 Y151.871 E.04115
G1 X119.411 Y151.446 E.04882
G1 X118.154 Y150.984 E.04199
G1 X116.706 Y150.327 E.04986
G1 X115.499 Y149.673 E.04304
G1 X114.076 Y148.77 E.05284
G1 X111.623 Y146.852 E.09763
G1 X110.336 Y145.643 E.05537
G1 X109.085 Y144.318 E.05714
G1 X106.93 Y141.639 E.1078
G1 X104.781 Y138.361 E.1229
G1 X103.011 Y135.065 E.1173
G1 X101.296 Y131.155 E.13387
G1 X99.958 Y127.375 E.12573
G1 X98.732 Y122.985 E.14291
G1 X97.782 Y118.416 E.14632
G1 X97.164 Y114.158 E.13491
G1 X96.754 Y109.355 E.15114
G1 X96.637 Y104.526 E.15145
G1 X96.784 Y100.137 E.13769
G1 X97.222 Y95.352 E.15066
G1 X97.95 Y90.655 E.14903
G1 X98.953 Y86.132 E.14526
G1 X100.237 Y81.767 E.14266
G1 X101.622 Y78.034 E.12484
G1 X103.384 Y74.186 E.1327
G1 X105.148 Y71.035 E.11323
M204 S1000
; printing object WarhammerBase90x52.stl id:0 copy 0
;WIPE_START
G1 F8640
G1 X105.177 Y70.982 E-.01395
G1 X107.084 Y68.162 E-.78605
;WIPE_END
G1 Z.6 F720
G1 X108.27 Y72.007 F10800
G1 Z.2 F720
G1 E.8 F2100
M204 S800
;TYPE:Perimeter
;WIDTH:0.419999
G1 F1200
G1 X109.08 Y70.796 E.04568
G1 X110.127 Y69.375 E.05534
G1 X111.213 Y68.054 E.05362
G1 X112.336 Y66.835 E.05197
G1 X113.26 Y65.934 E.04046
G1 X114.437 Y64.91 E.04892
G1 X115.633 Y64.001 E.0471
G1 X116.618 Y63.347 E.03707
G1 X117.352 Y62.912 E.02675
G1 X118.357 Y62.387 E.03555
G1 X119.111 Y62.044 E.02597
G1 X119.613 Y61.841 E.01698
G1 X120.372 Y61.569 E.02528
G1 X121.404 Y61.267 E.03371
G1 X121.909 Y61.147 E.01627
G1 X122.684 Y60.999 E.02474
G1 X123.193 Y60.925 E.01613
G1 X123.971 Y60.847 E.02452
G1 X124.482 Y60.819 E.01605
G1 X125.261 Y60.812 E.02443
G1 X125.771 Y60.831 E.016
G1 X126.549 Y60.894 E.02447
G1 X127.059 Y60.959 E.01612
G1 X127.835 Y61.093 E.02469
G1 X128.343 Y61.204 E.0163
G1 X129.11 Y61.407 E.02488
G1 X130.134 Y61.745 E.03381
G1 X130.893 Y62.046 E.0256
G1 X131.895 Y62.511 E.03464
G1 X132.643 Y62.909 E.02657
G1 X133.636 Y63.508 E.03636
G1 X134.12 Y63.829 E.01821
G1 X135.328 Y64.721 E.04708
G1 X136.039 Y65.308 E.02891
G1 X137.208 Y66.379 E.04971
G1 X138.344 Y67.556 E.05129
G1 X139.226 Y68.57 E.04214
G1 X140.084 Y69.65 E.04325
G1 X141.125 Y71.092 E.05576
G1 X141.923 Y72.31 E.04566
G1 X142.883 Y73.92 E.05877
G1 X143.613 Y75.266 E.04801
G1 X144.479 Y77.021 E.06136
G1 X145.139 Y78.492 E.05055
G1 X145.91 Y80.392 E.06429
G1 X146.624 Y82.36 E.06564
G1 X147.153 Y83.988 E.05367
G1 X147.754 Y86.056 E.06752
G1 X148.294 Y88.186 E.0689
G1 X148.682 Y89.935 E.05617
G1 X149.103 Y92.136 E.07026
G1 X149.392 Y93.929 E.05694
G1 X149.692 Y96.201 E.07186
G1 X149.924 Y98.497 E.07236
G1 X150.085 Y100.8 E.07239
G1 X150.165 Y102.669 E.05865
G1 X150.196 Y105.344 E.08388
G1 X150.177 Y106.863 E.04763
G1 X150.086 Y109.19 E.07302
G1 X149.924 Y111.503 E.0727
G1 X149.692 Y113.799 E.07236
G1 X149.458 Y115.617 E.05747
G1 X149.102 Y117.865 E.07136
G1 X148.682 Y120.065 E.07023
G1 X148.294 Y121.814 E.05617
G1 X147.754 Y123.944 E.0689
G1 X147.15 Y126.022 E.06785
G1 X146.624 Y127.64 E.05334
G1 X145.91 Y129.609 E.06567
G1 X145.299 Y131.131 E.05142
G1 X144.483 Y132.971 E.06311
G1 X143.614 Y134.732 E.06157
G1 X142.694 Y136.41 E.06
G1 X141.73 Y137.993 E.05811
G1 X140.92 Y139.204 E.04568
G1 X139.873 Y140.625 E.05534
G1 X138.787 Y141.946 E.05362
G1 X137.664 Y143.165 E.05197
G1 X136.74 Y144.066 E.04046
G1 X135.566 Y145.087 E.04878
G1 X134.607 Y145.826 E.03796
G1 X133.631 Y146.496 E.03712
G1 X132.891 Y146.949 E.0272
G1 X131.899 Y147.487 E.03538
G1 X131.143 Y147.845 E.02623
G1 X130.383 Y148.161 E.02581
G1 X129.882 Y148.345 E.01673
G1 X128.852 Y148.666 E.03383
G1 X128.344 Y148.796 E.01644
G1 X127.573 Y148.957 E.0247
G1 X127.064 Y149.04 E.01617
G1 X126.286 Y149.132 E.02456
G1 X125.776 Y149.169 E.01603
G1 X124.997 Y149.19 E.02443
G1 X124.486 Y149.181 E.01602
G1 X123.709 Y149.132 E.02441
G1 X123.199 Y149.076 E.01609
G1 X122.424 Y148.957 E.02458
G1 X121.652 Y148.795 E.02473
G1 X121.148 Y148.666 E.01631
G1 X120.118 Y148.345 E.03383
G1 X119.617 Y148.161 E.01673
G1 X118.857 Y147.845 E.02581
G1 X118.101 Y147.487 E.02623
G1 X117.109 Y146.949 E.03538
G1 X116.369 Y146.496 E.0272
G1 X115.389 Y145.824 E.03726
G1 X114.198 Y144.893 E.0474
G1 X113.023 Y143.843 E.04941
G1 X111.881 Y142.688 E.05093
G1 X110.994 Y141.691 E.04184
G1 X109.919 Y140.355 E.05377
G1 X109.081 Y139.205 E.04462
G1 X108.275 Y138.001 E.04543
G1 X107.306 Y136.41 E.05841
G1 X106.386 Y134.732 E.06
G1 X105.521 Y132.979 E.06129
G1 X104.861 Y131.507 E.05058
G1 X104.09 Y129.608 E.06426
G1 X103.376 Y127.64 E.06564
G1 X102.847 Y126.012 E.05367
G1 X102.246 Y123.944 E.06752
G1 X101.706 Y121.814 E.0689
G1 X101.318 Y120.065 E.05617
G1 X100.897 Y117.864 E.07026
G1 X100.607 Y116.06 E.05729
G1 X100.308 Y113.799 E.07151
G1 X100.076 Y111.503 E.07236
G1 X99.915 Y109.2 E.07239
G1 X99.835 Y107.331 E.05865
G1 X99.8 Y104.999 E.07313
G1 X99.823 Y103.137 E.05839
G1 X99.914 Y100.81 E.07302
G1 X100.076 Y98.497 E.0727
G1 X100.308 Y96.201 E.07236
G1 X100.607 Y93.94 E.07151
G1 X100.897 Y92.136 E.05729
G1 X101.318 Y89.935 E.07026
G1 X101.706 Y88.186 E.05617
G1 X102.246 Y86.056 E.0689
G1 X102.85 Y83.978 E.06785
G1 X103.376 Y82.36 E.05334
G1 X104.09 Y80.391 E.06567
G1 X104.701 Y78.869 E.05142
M73 Q1 S50
G1 X105.517 Y77.029 E.06311
G1 X106.386 Y75.268 E.06157
G1 X107.306 Y73.59 E.06
M73 P1 R50
G1 X108.238 Y72.058 E.05623
M204 S1000
G1 X108.238 Y72.058 F10800
G1 X107.952 Y71.804
M204 S800
;TYPE:External perimeter
G1 F1200
G1 X108.771 Y70.58 E.04618
G1 X109.83 Y69.143 E.05597
G1 X110.928 Y67.807 E.05422
G1 X112.065 Y66.572 E.05263
G1 X113.004 Y65.657 E.04111
G1 X114.196 Y64.62 E.04954
G1 X114.684 Y64.233 E.01953
G1 X115.416 Y63.692 E.02854
G1 X116.417 Y63.027 E.03768
G1 X117.166 Y62.584 E.02728
G1 X118.194 Y62.047 E.03636
G1 X118.962 Y61.698 E.02645
G1 X119.478 Y61.488 E.01747
G1 X120.255 Y61.21 E.02587
G1 X121.307 Y60.902 E.03437
G1 X121.83 Y60.778 E.01685
G1 X122.621 Y60.627 E.02525
G1 X123.148 Y60.55 E.0167
G1 X123.942 Y60.471 E.02502
G1 X124.47 Y60.442 E.01658
G1 X125.266 Y60.435 E.02496
G1 X125.793 Y60.454 E.01653
G1 X126.588 Y60.519 E.02501
G1 X127.115 Y60.586 E.01666
G1 X127.907 Y60.723 E.0252
G1 X128.431 Y60.837 E.01681
G1 X129.218 Y61.046 E.02553
G1 X130.263 Y61.391 E.0345
G1 X131.039 Y61.699 E.02618
G1 X132.065 Y62.174 E.03545
G1 X132.829 Y62.581 E.02714
G1 X133.838 Y63.189 E.03694
G1 X134.334 Y63.519 E.01868
G1 X135.075 Y64.05 E.02858
G1 X135.563 Y64.426 E.01932
G1 X136.287 Y65.023 E.02942
G1 X137.471 Y66.109 E.05037
G1 X138.622 Y67.301 E.05195
G1 X139.516 Y68.329 E.04272
G1 X140.385 Y69.422 E.04378
G1 X141.435 Y70.878 E.05628
G1 X142.243 Y72.11 E.0462
G1 X143.21 Y73.733 E.05924
G1 X143.948 Y75.093 E.04852
G1 X144.82 Y76.86 E.06178
G1 X145.486 Y78.344 E.051
G1 X146.262 Y80.257 E.06473
G1 X146.98 Y82.238 E.06607
G1 X147.514 Y83.877 E.05405
G1 X148.118 Y85.957 E.06791
G1 X148.661 Y88.099 E.06929
G1 X149.051 Y89.858 E.05649
G1 X149.474 Y92.071 E.07064
G1 X149.765 Y93.874 E.05726
G1 X150.067 Y96.157 E.07221
G1 X150.3 Y98.465 E.07273
G1 X150.462 Y100.778 E.0727
G1 X150.542 Y102.658 E.059
G1 X150.573 Y105.349 E.08438
G1 X150.554 Y106.873 E.04779
G1 X150.462 Y109.21 E.07333
G1 X150.3 Y111.535 E.07308
G1 X150.067 Y113.842 E.0727
G1 X149.831 Y115.671 E.05782
G1 X149.474 Y117.93 E.07171
G1 X149.051 Y120.142 E.07061
G1 X148.661 Y121.901 E.05649
G1 X148.118 Y124.043 E.06929
G1 X147.511 Y126.133 E.06824
G1 X146.98 Y127.762 E.05372
G1 X146.262 Y129.744 E.0661
G1 X145.646 Y131.278 E.05183
G1 X144.824 Y133.131 E.06356
G1 X143.948 Y134.906 E.06206
M73 P1 R49
G1 X143.021 Y136.599 E.06052
G1 X142.048 Y138.196 E.05863
G1 X141.229 Y139.42 E.04618
G1 X140.17 Y140.857 E.05597
G1 X139.072 Y142.193 E.05422
G1 X137.935 Y143.428 E.05263
G1 X136.996 Y144.343 E.04111
G1 X135.805 Y145.379 E.04949
G1 X134.829 Y146.131 E.03863
G1 X133.836 Y146.812 E.03775
G1 X133.082 Y147.274 E.02773
G1 X132.067 Y147.825 E.03621
G1 X131.296 Y148.19 E.02675
G1 X130.52 Y148.512 E.02634
G1 X130.003 Y148.702 E.01727
G1 X128.955 Y149.029 E.03442
G1 X128.429 Y149.163 E.01702
G1 X127.642 Y149.328 E.02521
G1 X127.116 Y149.414 E.01671
G1 X126.322 Y149.508 E.02507
G1 X125.795 Y149.546 E.01657
G1 X124.999 Y149.567 E.02497
G1 X124.471 Y149.558 E.01656
G1 X123.677 Y149.507 E.02495
G1 X123.149 Y149.45 E.01665
G1 X122.357 Y149.328 E.02513
G1 X121.567 Y149.162 E.02531
G1 X121.045 Y149.029 E.01689
G1 X119.997 Y148.702 E.03442
G1 X119.48 Y148.512 E.01727
G1 X118.704 Y148.19 E.02634
G1 X117.933 Y147.825 E.02675
G1 X116.918 Y147.274 E.03621
G1 X116.164 Y146.812 E.02773
G1 X115.17 Y146.131 E.03778
G1 X114.681 Y145.765 E.01915
G1 X113.954 Y145.18 E.02926
G1 X112.763 Y144.117 E.05005
G1 X111.606 Y142.946 E.05161
G1 X110.706 Y141.935 E.04244
G1 X109.62 Y140.585 E.05432
G1 X108.771 Y139.421 E.04517
G1 X107.957 Y138.204 E.04591
G1 X106.979 Y136.599 E.05893
G1 X106.052 Y134.907 E.06049
G1 X105.18 Y133.14 E.06178
G1 X104.514 Y131.656 E.051
G1 X103.738 Y129.743 E.06473
G1 X103.02 Y127.762 E.06607
G1 X102.486 Y126.123 E.05405
G1 X101.882 Y124.043 E.06791
G1 X101.339 Y121.901 E.06929
G1 X100.949 Y120.142 E.05649
G1 X100.526 Y117.929 E.07064
G1 X100.233 Y116.114 E.05764
G1 X99.933 Y113.843 E.07182
G1 X99.7 Y111.536 E.0727
G1 X99.538 Y109.222 E.07273
M73 Q1 S49
G1 X99.458 Y107.342 E.059
G1 X99.423 Y105 E.07344
G1 X99.446 Y103.127 E.05873
G1 X99.538 Y100.79 E.07333
G1 X99.7 Y98.465 E.07308
G1 X99.933 Y96.157 E.07273
G1 X100.233 Y93.886 E.07182
G1 X100.526 Y92.071 E.05764
G1 X100.949 Y89.858 E.07064
G1 X101.339 Y88.099 E.05649
G1 X101.882 Y85.957 E.06929
G1 X102.489 Y83.867 E.06824
G1 X103.02 Y82.238 E.05372
G1 X103.738 Y80.256 E.0661
G1 X104.354 Y78.722 E.05183
G1 X105.176 Y76.869 E.06356
G1 X106.052 Y75.094 E.06206
G1 X106.979 Y73.401 E.06052
G1 X107.921 Y71.855 E.05676
M204 S1000
;WIPE_START
G1 F8640
G1 X107.952 Y71.804 E-.01378
G1 X108.771 Y70.58 E-.34006
G1 X109.83 Y69.143 E-.41218
G1 X109.923 Y69.029 E-.03398
;WIPE_END
G1 Z.6 F720
G1 X135.237 Y64.809 F10800
G1 Z.2 F720
G1 E.8 F2100
M204 S800
;TYPE:Solid infill
;WIDTH:0.420225
G1 F1200
G1 X137.014 Y66.585 E.07882
G1 X138.135 Y67.747 E.05065
G1 X139.008 Y68.751 E.04174
G1 X139.859 Y69.821 E.04289
G1 X140.23 Y70.335 E.01989
G1 X134.001 Y64.106 E.27637
G1 X133.484 Y63.746 E.01976
G1 X132.537 Y63.175 E.03469
G1 X141.42 Y72.059 E.39414
G1 X141.683 Y72.46 E.01504
G1 X142.267 Y73.439 E.03576
G1 X131.426 Y62.598 E.481
G1 X130.481 Y62.187 E.03233
G1 X142.972 Y74.678 E.5542
G1 X143.562 Y75.801 E.0398
G1 X129.641 Y61.88 E.61765
G1 X128.861 Y61.634 E.02566
G1 X144.082 Y76.855 E.67533
G1 X144.539 Y77.846 E.03424
G1 X128.143 Y61.45 E.72746
G1 X127.478 Y61.318 E.02127
G1 X144.958 Y78.798 E.77556
G1 X145.323 Y79.696 E.03041
G1 X126.843 Y61.217 E.8199
G1 X126.249 Y61.156 E.01873
G1 X145.68 Y80.588 E.86214
G1 X145.984 Y81.425 E.02794
G1 X125.675 Y61.116 E.90107
G1 X125.129 Y61.103 E.01713
G1 X146.287 Y82.262 E.93876
G1 X146.555 Y83.063 E.0265
G1 X124.594 Y61.102 E.97437
G1 X124.082 Y61.124 E.01608
G1 X146.812 Y83.854 E1.00849
G1 X147.042 Y84.617 E.025
G1 X123.594 Y61.169 E1.04034
G1 X123.113 Y61.222 E.01518
M73 P2 R49
M73 Q2 S49
G1 X147.26 Y85.369 E1.07136
G1 X147.479 Y86.121 E.02457
G1 X122.65 Y61.293 E1.1016
G1 X122.202 Y61.379 E.01431
G1 X147.66 Y86.836 E1.1295
G1 X147.842 Y87.551 E.02315
G1 X121.762 Y61.472 E1.1571
G1 X121.337 Y61.581 E.01377
G1 X148.022 Y88.266 E1.18396
G1 X148.174 Y88.951 E.02201
G1 X120.925 Y61.701 E1.20901
G1 X120.512 Y61.822 E.0135
G1 X148.326 Y89.637 E1.23408
G1 X148.466 Y90.31 E.02157
G1 X120.117 Y61.961 E1.25779
G1 X119.724 Y62.101 E.01309
G1 X148.592 Y90.969 E1.28082
G1 X148.718 Y91.629 E.02108
G1 X119.344 Y62.255 E1.30327
G1 X118.973 Y62.418 E.01271
G1 X148.84 Y92.285 E1.32514
G1 X148.943 Y92.921 E.02021
G1 X118.606 Y62.584 E1.346
G1 X118.247 Y62.759 E.01253
G1 X149.045 Y93.557 E1.36645
G1 X149.141 Y94.186 E.01996
G1 X117.894 Y62.94 E1.38635
G1 X117.548 Y63.127 E.01234
G1 X149.222 Y94.801 E1.40532
G1 X149.303 Y95.416 E.01946
M73 P3 R49
M73 Q3 S49
G1 X117.211 Y63.324 E1.42386
G1 X116.876 Y63.523 E.01222
G1 X149.385 Y96.031 E1.44234
G1 X149.452 Y96.632 E.01897
M73 P3 R48
G1 X116.551 Y63.731 E1.45976
G1 X116.23 Y63.944 E.01209
G1 X149.511 Y97.225 E1.47662
G1 X149.571 Y97.818 E.0187
M73 Q3 S48
G1 X115.91 Y64.157 E1.49348
G1 X115.6 Y64.381 E.012
G1 X149.631 Y98.412 E1.50989
G1 X149.675 Y98.989 E.01815
G1 X115.297 Y64.611 E1.52529
G1 X114.994 Y64.842 E.01195
G1 X149.715 Y99.563 E1.54051
G1 X149.755 Y100.137 E.01805
G1 X114.691 Y65.072 E1.55575
G1 X114.401 Y65.316 E.01189
G1 X149.795 Y100.71 E1.57037
G1 X149.822 Y101.271 E.01762
G1 X114.116 Y65.564 E1.58423
G1 X113.83 Y65.813 E.0119
G1 X149.846 Y101.828 E1.59794
G1 X149.869 Y102.385 E.01749
G1 X113.545 Y66.061 E1.61163
G1 X113.27 Y66.319 E.01183
M73 P4 R48
M73 Q4 S48
G1 X149.886 Y102.935 E1.62459
G1 X149.894 Y103.477 E.01701
G1 X113 Y66.583 E1.63692
G1 X112.73 Y66.846 E.01183
G1 X149.902 Y104.019 E1.64928
G1 X149.91 Y104.561 E.01701
G1 X112.464 Y67.114 E1.66143
